airu.cube
TITLE "airu look"
LUT_3D_SIZE 33
0.00000 0.00000 0.00000
0.00582 0.00867 0.02515
0.03310 0.00995 0.02794
0.06027 0.01124 0.02974
0.08670 0.01270 0.03139
0.11221 0.01440 0.03309
0.13669 0.01637 0.03493
0.16009 0.01863 0.03697
0.18236 0.02120 0.03925
0.20347 0.02408 0.04178
0.22342 0.02728 0.04458
0.24218 0.03081 0.04767
0.26455 0.03332 0.05017
0.28849 0.03540 0.05237
0.31247 0.03747 0.05455
0.33649 0.03954 0.05671
0.36056 0.04161 0.05886
0.38467 0.04367 0.06100
0.40882 0.04574 0.06312
0.43302 0.04779 0.06524
0.45727 0.04985 0.06735
0.48156 0.05191 0.06945
0.50590 0.05397 0.07154
0.53030 0.05603 0.07363
0.55475 0.05809 0.07572
0.57925 0.06015 0.07780
0.60381 0.06222 0.07988
0.62844 0.06428 0.08196
0.65313 0.06635 0.08404
0.67789 0.06842 0.08611
0.70272 0.07050 0.08819
0.72762 0.07258 0.09027
0.75260 0.07466 0.09235
0.00000 0.04053 0.03087
0.00086 0.04129 0.03229
0.02991 0.04200 0.03351
0.05961 0.04275 0.03459
0.08731 0.04378 0.03619
0.11388 0.04511 0.03801
0.13930 0.04675 0.04010
0.16356 0.04872 0.04246
0.18663 0.05100 0.04510
0.20852 0.05362 0.04804
0.22920 0.05656 0.05129
0.24868 0.05984 0.05484
0.27105 0.06235 0.05750
0.29511 0.06443 0.05964
0.31921 0.06650 0.06177
0.34335 0.06857 0.06389
0.36753 0.07063 0.06601
0.39176 0.07270 0.06811
0.41603 0.07477 0.07021
0.44036 0.07684 0.07230
0.46473 0.07891 0.07439
0.48915 0.08099 0.07647
0.51363 0.08306 0.07856
0.53817 0.08514 0.08064
0.56276 0.08723 0.08271
0.58742 0.08931 0.08479
0.61215 0.09140 0.08687
0.63694 0.09350 0.08895
0.66181 0.09560 0.09103
0.68675 0.09771 0.09311
0.71177 0.09982 0.09519
0.73687 0.10194 0.09728
0.76206 0.10406 0.09937
0.00000 0.07214 0.03595
0.00000 0.07277 0.03691
0.02671 0.07337 0.03779
0.05871 0.07388 0.03845
0.08877 0.07463 0.03997
0.11617 0.07567 0.04217
0.14238 0.07705 0.04466
0.16739 0.07875 0.04746
0.19120 0.08079 0.05056
0.21380 0.08316 0.05399
0.23519 0.08587 0.05773
0.25536 0.08892 0.06180
0.27785 0.09140 0.06466
0.30202 0.09348 0.06677
0.32623 0.09556 0.06888
0.35049 0.09764 0.07097
0.37479 0.09972 0.07306
0.39914 0.10181 0.07515
0.42353 0.10390 0.07723
0.44799 0.10599 0.07931
0.47249 0.10808 0.08139
0.49706 0.11018 0.08347
0.52168 0.11229 0.08555
0.54637 0.11440 0.08763
0.57113 0.11652 0.08971
0.59596 0.11864 0.09179
0.62086 0.12077 0.09387
0.64584 0.12290 0.09595
0.67089 0.12505 0.09804
0.69603 0.12720 0.10013
0.72126 0.12936 0.10223
0.74658 0.13153 0.10433
0.77199 0.13370 0.10643
0.00000 0.10341 0.03990
0.00000 0.10399 0.04066
0.02420 0.10456 0.04140
0.05644 0.10496 0.04207
0.08905 0.10540 0.04362
0.11880 0.10622 0.04592
0.14574 0.10735 0.04889
0.17147 0.10881 0.05219
0.19598 0.11062 0.05581
0.21928 0.11276 0.05976
0.24135 0.11525 0.06404
0.26220 0.11807 0.06865
0.28492 0.12052 0.07173
0.30919 0.12261 0.07382
0.33352 0.12471 0.07591
0.35789 0.12682 0.07799
0.38231 0.12892 0.08007
0.40679 0.13104 0.08215
0.43132 0.13315 0.08423
0.45591 0.13528 0.08631
0.48057 0.13741 0.08838
0.50528 0.13955 0.09046
0.53007 0.14169 0.09254
0.55493 0.14384 0.09463
0.57986 0.14600 0.09671
0.60487 0.14817 0.09880
0.62997 0.15035 0.10089
0.65514 0.15254 0.10299
0.68041 0.15473 0.10509
0.70577 0.15694 0.10720
0.73122 0.15916 0.10931
0.75677 0.16139 0.11143
0.78242 0.16363 0.11355
0.00000 0.13458 0.04333
0.00000 0.13515 0.04399
0.02207 0.13571 0.04464
0.05434 0.13609 0.04519
0.08794 0.13622 0.04723
0.12002 0.13676 0.04974
0.14932 0.13769 0.05293
0.17574 0.13894 0.05676
0.20095 0.14052 0.06092
0.22493 0.14245 0.06542
0.24769 0.14473 0.07026
0.26921 0.14735 0.07544
0.29222 0.14975 0.07875
0.31661 0.15187 0.08083
0.34105 0.15400 0.08291
0.36555 0.15614 0.08498
0.39011 0.15828 0.08706
0.41472 0.16043 0.08914
0.43940 0.16259 0.09122
0.46414 0.16476 0.09330
0.48896 0.16693 0.09538
0.51385 0.16912 0.09747
0.53881 0.17131 0.09956
0.56385 0.17352 0.10166
0.58898 0.17574 0.10375
0.61419 0.17796 0.10586
0.63949 0.18020 0.10797
0.66488 0.18245 0.11008
0.69037 0.18471 0.11220
0.71596 0.18699 0.11433
0.74165 0.18927 0.11646
0.76744 0.19157 0.11860
0.79334 0.19389 0.12075
0.00000 0.16575 0.04647
0.00000 0.16632 0.04707
0.02018 0.16688 0.04765
0.05230 0.16735 0.04795
0.08688 0.16717 0.05051
0.11993 0.16743 0.05355
0.15143 0.16811 0.05708
0.18020 0.16917 0.06124
0.20610 0.17055 0.06596
0.23077 0.17228 0.07103
0.25421 0.17436 0.07645
0.27642 0.17679 0.08222
0.29975 0.17913 0.08574
0.32426 0.18130 0.08782
0.34884 0.18347 0.08990
0.37348 0.18565 0.09198
0.39818 0.18784 0.09406
0.42294 0.19004 0.09614
0.44778 0.19225 0.09823
0.47270 0.19448 0.10032
0.49769 0.19671 0.10242
0.52276 0.19895 0.10452
0.54791 0.20121 0.10663
0.57315 0.20348 0.10874
0.59848 0.20576 0.11085
0.62391 0.20806 0.11298
0.64943 0.21037 0.11511
0.67506 0.21269 0.11724
0.70078 0.21503 0.11939
0.72661 0.21738 0.12154
0.75255 0.21974 0.12370
0.77860 0.22212 0.12586
0.80477 0.22452 0.12804
0.00000 0.19697 0.04941
0.00000 0.19755 0.04997
0.01845 0.19814 0.05052
0.05029 0.19876 0.05043
0.08583 0.19831 0.05353
0.11984 0.19828 0.05713
0.15230 0.19868 0.06122
0.18322 0.19952 0.06581
0.21143 0.20074 0.07098
0.23679 0.20228 0.07663
0.26092 0.20417 0.08264
0.28383 0.20642 0.08901
0.30751 0.20873 0.09273
0.33217 0.21094 0.09482
0.35689 0.21317 0.09690
0.38168 0.21541 0.09899
0.40654 0.21766 0.10109
0.43147 0.21992 0.10318
0.45649 0.22219 0.10529
0.48158 0.22448 0.10739
0.50676 0.22678 0.10951
0.53203 0.22910 0.11163
0.55739 0.23143 0.11375
0.58285 0.23378 0.11588
0.60840 0.23614 0.11802
0.63405 0.23851 0.12017
0.65981 0.24090 0.12232
0.68567 0.24330 0.12448
0.71165 0.24573 0.12666
0.73773 0.24816 0.12883
0.76392 0.25061 0.13102
0.79024 0.25308 0.13322
0.81666 0.25556 0.13542
0.00000 0.22830 0.05223
0.00000 0.22891 0.05275
0.01685 0.22953 0.05327
0.04878 0.23019 0.05316
0.08476 0.22966 0.05632
0.11974 0.22936 0.06050
0.15317 0.22950 0.06518
0.18505 0.23008 0.07036
0.21538 0.23110 0.07604
0.24302 0.23250 0.08225
0.26786 0.23422 0.08887
0.29146 0.23629 0.09586
0.31552 0.23858 0.09975
0.34033 0.24086 0.10185
0.36521 0.24315 0.10395
0.39016 0.24545 0.10605
0.41520 0.24777 0.10816
0.44032 0.25011 0.11028
0.46552 0.25246 0.11240
0.49081 0.25483 0.11453
0.51620 0.25721 0.11666
0.54168 0.25960 0.11880
0.56726 0.26202 0.12095
0.59294 0.26445 0.12311
0.61872 0.26689 0.12527
0.64461 0.26935 0.12745
0.67061 0.27183 0.12963
0.69673 0.27433 0.13182
0.72295 0.27684 0.13402
0.74929 0.27936 0.13622
0.77574 0.28191 0.13844
0.80231 0.28446 0.14067
0.82900 0.28704 0.14290
0.00000 0.25979 0.05495
0.00000 0.26044 0.05545
0.01535 0.26110 0.05595
0.04739 0.26180 0.05582
0.08367 0.26128 0.05894
0.11962 0.26072 0.06370
0.15403 0.26061 0.06898
0.18689 0.26094 0.07476
0.21820 0.26171 0.08106
0.24796 0.26293 0.08788
0.27502 0.26454 0.09517
0.29934 0.26646 0.10279
0.32378 0.26874 0.10682
0.34876 0.27109 0.10893
0.37381 0.27346 0.11105
0.39895 0.27584 0.11317
0.42417 0.27825 0.11530
0.44948 0.28066 0.11744
0.47489 0.28310 0.11958
0.50039 0.28555 0.12174
0.52600 0.28802 0.12390
0.55170 0.29051 0.12606
0.57751 0.29301 0.12824
0.60342 0.29553 0.13043
0.62945 0.29807 0.13262
0.65558 0.30063 0.13482
0.68183 0.30320 0.13703
0.70819 0.30579 0.13925
0.73466 0.30839 0.14148
0.76125 0.31101 0.14371
0.78795 0.31365 0.14596
0.81477 0.31630 0.14821
0.84170 0.31896 0.15047
0.00000 0.29148 0.05761
0.00000 0.29219 0.05809
0.01394 0.29290 0.05858
0.04612 0.29367 0.05842
0.08256 0.29322 0.06139
0.11949 0.29241 0.06676
0.15488 0.29206 0.07265
0.18873 0.29215 0.07905
0.22103 0.29269 0.08598
0.25179 0.29368 0.09344
0.28100 0.29513 0.10142
0.30749 0.29696 0.10981
0.33231 0.29925 0.11395
0.35746 0.30169 0.11608
0.38270 0.30415 0.11822
0.40804 0.30662 0.12037
0.43346 0.30911 0.12252
0.45898 0.31162 0.12468
0.48460 0.31415 0.12686
0.51033 0.31670 0.12903
0.53616 0.31927 0.13122
0.56209 0.32185 0.13342
0.58813 0.32445 0.13562
0.61428 0.32707 0.13784
0.64055 0.32970 0.14006
0.66692 0.33235 0.14229
0.69341 0.33502 0.14453
0.72001 0.33770 0.14678
0.74673 0.34040 0.14903
0.77356 0.34311 0.15130
0.80050 0.34583 0.15357
0.82755 0.34857 0.15584
0.85471 0.35131 0.15813
0.00000 0.32344 0.06022
0.00000 0.32421 0.06070
0.01259 0.32499 0.06117
0.04494 0.32583 0.06099
0.08140 0.32551 0.06370
0.11934 0.32448 0.06969
0.15573 0.32389 0.07620
0.19059 0.32375 0.08324
0.22390 0.32407 0.09081
0.25567 0.32484 0.09892
0.28589 0.32608 0.10757
0.31456 0.32777 0.11676
0.34111 0.33017 0.12115
0.36646 0.33270 0.12331
0.39190 0.33525 0.12547
0.41743 0.33783 0.12765
0.44307 0.34042 0.12983
0.46881 0.34303 0.13202
0.49465 0.34565 0.13422
0.52060 0.34830 0.13643
0.54666 0.35097 0.13865
0.57282 0.35365 0.14087
0.59910 0.35635 0.14310
0.62549 0.35906 0.14535
0.65198 0.36179 0.14760
0.67859 0.36454 0.14986
0.70532 0.36730 0.15212
0.73215 0.37007 0.15439
0.75909 0.37285 0.15667
0.78614 0.37565 0.15896
0.81329 0.37845 0.16125
0.84055 0.38126 0.16355
0.86790 0.38408 0.16586
0.00000 0.35571 0.06280
0.00000 0.35655 0.06327
0.01130 0.35741 0.06374
0.04384 0.35834 0.06354
0.08021 0.35823 0.06588
0.11916 0.35696 0.07250
0.15658 0.35616 0.07966
0.19246 0.35580 0.08734
0.22680 0.35590 0.09557
0.25960 0.35647 0.10435
0.29086 0.35749 0.11367
0.32056 0.35897 0.12354
0.34887 0.36140 0.12873
0.37573 0.36416 0.13063
0.40138 0.36682 0.13282
0.42713 0.36949 0.13502
0.45298 0.37218 0.13723
0.47894 0.37490 0.13945
0.50501 0.37763 0.14168
0.53119 0.38037 0.14392
0.55747 0.38314 0.14616
0.58386 0.38592 0.14842
0.61037 0.38871 0.15068
0.63698 0.39152 0.15295
0.66370 0.39434 0.15522
0.69053 0.39717 0.15751
0.71747 0.40001 0.15980
0.74451 0.40286 0.16209
0.77165 0.40572 0.16439
0.79889 0.40859 0.16670
0.82623 0.41146 0.16900
0.85365 0.41433 0.17132
0.88116 0.41720 0.17363
0.00000 0.38835 0.06537
0.00000 0.38928 0.06584
0.01006 0.39022 0.06630
0.04283 0.39125 0.06607
0.07898 0.39140 0.06795
0.11897 0.38992 0.07521
0.15743 0.38890 0.08302
0.19435 0.38833 0.09137
0.22974 0.38823 0.10027
0.26359 0.38858 0.10973
0.29589 0.38940 0.11973
0.32664 0.39068 0.13031
0.35560 0.39298 0.13669
0.38403 0.39598 0.13832
0.41114 0.39886 0.14026
0.43711 0.40164 0.14250
0.46318 0.40443 0.14474
0.48937 0.40724 0.14698
0.51565 0.41007 0.14924
0.54205 0.41292 0.15150
0.56855 0.41577 0.15378
0.59517 0.41864 0.15605
0.62188 0.42152 0.15834
0.64871 0.42441 0.16063
0.67563 0.42731 0.16293
0.70266 0.43022 0.16523
0.72978 0.43313 0.16754
0.75700 0.43604 0.16985
0.78431 0.43896 0.17216
0.81171 0.44188 0.17447
0.83918 0.44479 0.17679
0.86673 0.44770 0.17911
0.89436 0.45060 0.18142
0.00000 0.42141 0.06793
0.00000 0.42243 0.06840
0.00886 0.42348 0.06886
0.04187 0.42461 0.06861
0.07771 0.42508 0.06991
0.11875 0.42339 0.07783
0.15827 0.42216 0.08631
0.19625 0.42139 0.09534
0.23271 0.42107 0.10492
0.26762 0.42122 0.11507
0.30099 0.42183 0.12578
0.33280 0.42291 0.13706
0.36255 0.42502 0.14475
0.39120 0.42813 0.14640
0.41998 0.43127 0.14806
0.44735 0.43426 0.15006
0.47364 0.43715 0.15233
0.50003 0.44006 0.15460
0.52653 0.44298 0.15689
0.55314 0.44591 0.15917
0.57985 0.44885 0.16147
0.60666 0.45179 0.16376
0.63357 0.45475 0.16607
0.66058 0.45770 0.16838
0.68768 0.46066 0.17069
0.71487 0.46363 0.17300
0.74215 0.46659 0.17532
0.76951 0.46954 0.17763
0.79695 0.47249 0.17995
0.82445 0.47543 0.18227
0.85202 0.47837 0.18458
0.87965 0.48129 0.18689
0.90733 0.48419 0.18920
0.00000 0.45492 0.07050
0.00000 0.45606 0.07096
0.00770 0.45721 0.07143
0.04099 0.45846 0.07114
0.07638 0.45931 0.07177
0.11850 0.45741 0.08037
0.15910 0.45596 0.08952
0.19817 0.45498 0.09924
0.23570 0.45446 0.10952
0.27169 0.45439 0.12037
0.30613 0.45480 0.13180
0.33902 0.45566 0.14380
0.36970 0.45753 0.15290
0.39857 0.46075 0.15458
0.42757 0.46399 0.15627
0.45669 0.46723 0.15796
0.48430 0.47033 0.16001
0.51089 0.47331 0.16230
0.53759 0.47631 0.16460
0.56439 0.47931 0.16691
0.59128 0.48231 0.16922
0.61827 0.48532 0.17153
0.64534 0.48832 0.17384
0.67250 0.49132 0.17616
0.69974 0.49432 0.17848
0.72706 0.49731 0.18080
0.75445 0.50029 0.18311
0.78191 0.50326 0.18542
0.80942 0.50622 0.18774
0.83699 0.50915 0.19004
0.86460 0.51207 0.19234
0.89224 0.51497 0.19464
0.91992 0.51784 0.19692
0.00000 0.48894 0.07307
0.00000 0.49019 0.07354
0.00657 0.49145 0.07401
0.04015 0.49282 0.07369
0.07500 0.49409 0.07353
0.11822 0.49198 0.08282
0.15991 0.49032 0.09266
0.20008 0.48912 0.10308
0.23871 0.48838 0.11407
0.27579 0.48810 0.12564
0.31132 0.48828 0.13779
0.34527 0.48893 0.15053
0.37702 0.49049 0.16115
0.40610 0.49381 0.16285
0.43530 0.49713 0.16455
0.46463 0.50046 0.16626
0.49407 0.50380 0.16797
0.52188 0.50695 0.17006
0.54875 0.51000 0.17237
0.57571 0.51305 0.17469
0.60276 0.51609 0.17700
0.62988 0.51913 0.17932
0.65709 0.52216 0.18164
0.68436 0.52518 0.18395
0.71170 0.52818 0.18627
0.73910 0.53117 0.18858
0.76656 0.53414 0.19088
0.79406 0.53709 0.19318
0.82159 0.54001 0.19547
0.84916 0.54291 0.19775
0.87675 0.54578 0.20003
0.90436 0.54862 0.20229
0.93197 0.55142 0.20455
0.00000 0.52349 0.07565
0.00000 0.52485 0.07612
0.00547 0.52622 0.07659
0.03937 0.52772 0.07624
0.07404 0.52926 0.07568
0.11789 0.52712 0.08518
0.16070 0.52523 0.09573
0.20198 0.52381 0.10686
0.24171 0.52284 0.11857
0.27989 0.52232 0.13087
0.31650 0.52227 0.14375
0.35153 0.52267 0.15723
0.38446 0.52386 0.16947
0.41374 0.52725 0.17118
0.44313 0.53064 0.17290
0.47264 0.53403 0.17462
0.50226 0.53741 0.17633
0.53198 0.54080 0.17805
0.55993 0.54397 0.18017
0.58702 0.54704 0.18248
0.61418 0.55009 0.18480
0.64141 0.55313 0.18711
0.66870 0.55615 0.18941
0.69604 0.55915 0.19172
0.72343 0.56213 0.19401
0.75086 0.56508 0.19630
0.77833 0.56800 0.19858
0.80582 0.57089 0.20085
0.83332 0.57375 0.20311
0.86084 0.57656 0.20536
0.88835 0.57934 0.20760
0.91585 0.58208 0.20982
0.94333 0.58478 0.21202
0.00000 0.55858 0.07825
0.00000 0.56004 0.07872
0.00440 0.56152 0.07919
0.03863 0.56313 0.07880
0.07353 0.56478 0.07824
0.11751 0.56280 0.08746
0.16145 0.56067 0.09873
0.20384 0.55900 0.11058
0.24468 0.55778 0.12302
0.28396 0.55701 0.13604
0.32166 0.55669 0.14967
0.35776 0.55682 0.16389
0.39198 0.55758 0.17784
0.42143 0.56101 0.17956
0.45099 0.56444 0.18128
0.48065 0.56786 0.18300
0.51041 0.57126 0.18472
0.54026 0.57465 0.18642
0.57020 0.57802 0.18813
0.59821 0.58116 0.19025
0.62544 0.58419 0.19255
0.65273 0.58719 0.19485
0.68005 0.59017 0.19713
0.70742 0.59311 0.19941
0.73481 0.59602 0.20168
0.76221 0.59889 0.20393
0.78963 0.60172 0.20618
0.81705 0.60452 0.20841
0.84447 0.60726 0.21062
0.87187 0.60996 0.21282
0.89924 0.61261 0.21501
0.92658 0.61521 0.21717
0.95387 0.61776 0.21932
0.00000 0.59419 0.08086
0.00000 0.59576 0.08133
0.00334 0.59733 0.08180
0.03793 0.59905 0.08136
0.07305 0.60079 0.08079
0.11707 0.59898 0.08965
0.16214 0.59659 0.10164
0.20565 0.59465 0.11421
0.24760 0.59315 0.12739
0.28797 0.59209 0.14115
0.32674 0.59148 0.15552
0.36391 0.59131 0.17048
0.39944 0.59159 0.18605
0.42911 0.59500 0.18796
0.45881 0.59843 0.18967
0.48860 0.60184 0.19138
0.51846 0.60523 0.19308
0.54840 0.60859 0.19477
0.57840 0.61191 0.19645
0.60845 0.61520 0.19812
0.63643 0.61824 0.20024
0.66372 0.62116 0.20250
0.69104 0.62405 0.20475
0.71836 0.62690 0.20699
0.74570 0.62970 0.20922
0.77303 0.63245 0.21143
0.80034 0.63516 0.21362
0.82764 0.63781 0.21580
0.85490 0.64041 0.21795
0.88213 0.64295 0.22009
0.90931 0.64543 0.22221
0.93643 0.64786 0.22431
0.96348 0.65022 0.22638
0.00000 0.63031 0.08347
0.00000 0.63195 0.08394
0.00231 0.63360 0.08441
0.03726 0.63540 0.08391
0.07262 0.63721 0.08333
0.11655 0.63560 0.09174
0.16275 0.63292 0.10445
0.20738 0.63067 0.11776
0.25043 0.62886 0.13167
0.29188 0.62748 0.14617
0.33171 0.62654 0.16128
0.36991 0.62603 0.17698
0.40646 0.62596 0.19329
0.43672 0.62909 0.19634
0.46652 0.63249 0.19804
0.49638 0.63586 0.19972
0.52631 0.63918 0.20139
0.55629 0.64247 0.20305
0.58631 0.64571 0.20470
0.61637 0.64889 0.20632
0.64644 0.65203 0.20793
0.67428 0.65490 0.21002
0.70153 0.65766 0.21223
0.72877 0.66036 0.21441
0.75599 0.66301 0.21658
0.78318 0.66561 0.21873
0.81034 0.66814 0.22087
0.83746 0.67062 0.22298
0.86452 0.67303 0.22506
0.89152 0.67538 0.22713
0.91845 0.67766 0.22917
0.94530 0.67987 0.23119
0.97206 0.68202 0.23318
0.00000 0.66687 0.08607
0.00000 0.66857 0.08654
0.00130 0.67027 0.08701
0.03662 0.67213 0.08645
0.07220 0.67397 0.08586
0.11594 0.67256 0.09371
0.16326 0.66955 0.10716
0.20900 0.66696 0.12120
0.25314 0.66479 0.13584
0.29565 0.66306 0.15108
0.33652 0.66174 0.16693
0.37573 0.66086 0.18337
0.41326 0.66039 0.20041
0.44417 0.66316 0.20466
0.47403 0.66648 0.20633
0.50394 0.66976 0.20797
0.53389 0.67298 0.20961
0.56386 0.67614 0.21122
0.59385 0.67925 0.21281
0.62386 0.68229 0.21439
0.65385 0.68527 0.21594
0.68384 0.68818 0.21747
0.71142 0.69081 0.21951
0.73852 0.69334 0.22164
0.76558 0.69580 0.22374
0.79259 0.69820 0.22582
0.81954 0.70053 0.22787
0.84643 0.70279 0.22991
0.87324 0.70498 0.23192
0.89997 0.70710 0.23390
0.92661 0.70915 0.23585
0.95315 0.71113 0.23778
0.97958 0.71303 0.23969
0.00000 0.70378 0.08867
0.00000 0.70552 0.08913
0.00034 0.70724 0.08957
0.03600 0.70911 0.08897
0.07180 0.71096 0.08835
0.11522 0.70975 0.09557
0.16366 0.70636 0.10974
0.21049 0.70338 0.12452
0.25568 0.70082 0.13989
0.29923 0.69868 0.15586
0.34111 0.69695 0.17243
0.38129 0.69563 0.18960
0.41977 0.69473 0.20736
0.45141 0.69706 0.21289
0.48128 0.70025 0.21451
0.51118 0.70339 0.21610
0.54110 0.70646 0.21768
0.57102 0.70946 0.21924
0.60094 0.71239 0.22077
0.63084 0.71524 0.22228
0.66071 0.71802 0.22376
0.69054 0.72072 0.22521
0.72032 0.72334 0.22664
0.74754 0.72568 0.22862
0.77439 0.72791 0.23064
0.80117 0.73008 0.23264
0.82787 0.73217 0.23461
0.85449 0.73419 0.23656
0.88101 0.73614 0.23848
0.90743 0.73801 0.24037
0.93375 0.73980 0.24224
0.95995 0.74152 0.24407
0.98603 0.74317 0.24588
0.00000 0.74095 0.09124
0.00000 0.74268 0.09169
0.00000 0.74439 0.09207
0.03539 0.74623 0.09144
0.07139 0.74803 0.09080
0.11439 0.74702 0.09728
0.16392 0.74321 0.11218
0.21180 0.73980 0.12769
0.25803 0.73680 0.14379
0.30258 0.73420 0.16048
0.34543 0.73200 0.17776
0.38655 0.73021 0.19564
0.42594 0.72883 0.21411
0.45835 0.73062 0.22097
0.48819 0.73364 0.22253
0.51804 0.73660 0.22406
0.54788 0.73947 0.22557
0.57771 0.74226 0.22706
0.60750 0.74497 0.22851
0.63725 0.74760 0.22994
0.66694 0.75014 0.23134
0.69658 0.75259 0.23271
0.72613 0.75495 0.23405
0.75560 0.75722 0.23536
0.78237 0.75922 0.23726
0.80888 0.76113 0.23917
0.83529 0.76297 0.24105
0.86161 0.76472 0.24291
0.88781 0.76640 0.24474
0.91390 0.76800 0.24653
0.93987 0.76953 0.24830
0.96571 0.77098 0.25004
0.99142 0.77236 0.25176
0.00000 0.77823 0.09377
0.00000 0.77991 0.09420
0.00000 0.78157 0.09450
0.03480 0.78333 0.09385
0.07098 0.78504 0.09318
0.11343 0.78421 0.09884
0.16401 0.77993 0.11447
0.21293 0.77604 0.13069
0.26015 0.77254 0.14750
0.30566 0.76944 0.16491
0.34943 0.76674 0.18289
0.39145 0.76443 0.20146
0.43169 0.76251 0.22061
0.46493 0.76369 0.22887
0.49470 0.76650 0.23035
0.52445 0.76922 0.23181
0.55417 0.77186 0.23324
0.58385 0.77441 0.23464
0.61347 0.77686 0.23601
0.64303 0.77923 0.23735
0.67251 0.78149 0.23866
0.70191 0.78367 0.23994
0.73120 0.78575 0.24119
0.76039 0.78773 0.24240
0.78947 0.78962 0.24358
0.81570 0.79126 0.24539
0.84180 0.79281 0.24718
0.86779 0.79429 0.24894
0.89365 0.79570 0.25067
0.91939 0.79703 0.25237
0.94500 0.79828 0.25405
0.97048 0.79947 0.25569
0.99582 0.80058 0.25731
0.00000 0.81547 0.09624
0.00000 0.81706 0.09664
0.00000 0.81862 0.09687
0.03422 0.82025 0.09618
0.07055 0.82181 0.09548
0.11233 0.82115 0.10024
0.16394 0.81634 0.11658
0.21384 0.81192 0.13351
0.26201 0.80789 0.15103
0.30844 0.80424 0.16912
0.35309 0.80098 0.18779
0.39595 0.79811 0.20704
0.43700 0.79562 0.22685
0.47110 0.79612 0.23654
0.50076 0.79868 0.23794
0.53037 0.80113 0.23931
0.55993 0.80350 0.24065
0.58942 0.80577 0.24196
0.61883 0.80793 0.24324
0.64816 0.81001 0.24448
0.67739 0.81198 0.24569
0.70651 0.81385 0.24687
0.73552 0.81563 0.24802
0.76441 0.81731 0.24913
0.79316 0.81890 0.25021
0.82164 0.82039 0.25129
0.84742 0.82167 0.25298
0.87307 0.82287 0.25465
0.89859 0.82400 0.25628
0.92398 0.82506 0.25789
0.94924 0.82605 0.25947
0.97435 0.82698 0.26102
0.99933 0.82784 0.26255
0.00000 0.85250 0.09863
0.00000 0.85394 0.09901
0.00000 0.85536 0.09915
0.03365 0.85680 0.09842
0.07010 0.85816 0.09768
0.11108 0.85766 0.10146
0.16367 0.85228 0.11850
0.21451 0.84729 0.13613
0.26359 0.84267 0.15433
0.31088 0.83844 0.17310
0.35636 0.83458 0.19244
0.40001 0.83111 0.21233
0.44181 0.82802 0.23278
0.47683 0.82777 0.24395
0.50633 0.83004 0.24526
0.53576 0.83220 0.24653
0.56512 0.83426 0.24777
0.59439 0.83623 0.24898
0.62356 0.83809 0.25016
0.65263 0.83985 0.25130
0.68158 0.84151 0.25241
0.71041 0.84308 0.25349
0.73911 0.84455 0.25453
0.76768 0.84592 0.25555
0.79610 0.84721 0.25653
0.82437 0.84840 0.25747
0.85220 0.84950 0.25847
0.87752 0.85044 0.26004
0.90270 0.85131 0.26158
0.92775 0.85211 0.26310
0.95266 0.85286 0.26459
0.97744 0.85355 0.26606
1.00000 0.85418 0.26750
0.00000 0.88913 0.10093
0.00000 0.89039 0.10128
0.00000 0.89160 0.10132
0.03308 0.89281 0.10056
0.06963 0.89393 0.09977
0.10970 0.89355 0.10250
0.16321 0.88757 0.12023
0.21494 0.88196 0.13853
0.26487 0.87673 0.15740
0.31296 0.87187 0.17682
0.35922 0.86739 0.19680
0.40361 0.86329 0.21733
0.44612 0.85957 0.23839
0.48207 0.85852 0.25107
0.51138 0.86047 0.25228
0.54060 0.86232 0.25345
0.56973 0.86407 0.25459
0.59875 0.86571 0.25570
0.62766 0.86726 0.25677
0.65645 0.86870 0.25781
0.68511 0.87005 0.25882
0.71363 0.87131 0.25979
0.74202 0.87247 0.26073
0.77026 0.87355 0.26165
0.79835 0.87454 0.26253
0.82628 0.87545 0.26338
0.85406 0.87629 0.26421
0.88123 0.87703 0.26513
0.90609 0.87766 0.26659
0.93082 0.87824 0.26802
0.95542 0.87876 0.26943
0.97988 0.87924 0.27082
1.00000 0.87902 0.27199
0.00000 0.92519 0.10312
0.00000 0.92621 0.10343
0.00000 0.92717 0.10338
0.03251 0.92810 0.10256
0.06912 0.92893 0.10173
0.10817 0.92867 0.10334
0.16256 0.92205 0.12174
0.21512 0.91579 0.14070
0.26584 0.90992 0.16022
