airu.cube
TITLE "airu look"
LUT_3D_SIZE 5
0.00000 0.00000 0.00000
0.18236 0.02120 0.03925
0.36056 0.04161 0.05886
0.55475 0.05809 0.07572
0.75260 0.07466 0.09235
0.00000 0.25979 0.05495
0.21820 0.26171 0.08106
0.42417 0.27825 0.11530
0.62945 0.29807 0.13262
0.84170 0.31896 0.15047
0.00000 0.52349 0.07565
0.24171 0.52284 0.11857
0.50226 0.53741 0.17633
0.72343 0.56213 0.19401
0.94333 0.58478 0.21202
0.00000 0.81547 0.09624
0.26201 0.80789 0.15103
0.55993 0.80350 0.24065
0.79316 0.81890 0.25021
0.99933 0.82784 0.26255
0.00000 1.00000 0.11198
0.26651 1.00000 0.17066
0.58411 1.00000 0.28746
0.78787 1.00000 0.28766
0.98102 0.98997 0.28776
0.00000 0.01063 0.26456
0.20659 0.01603 0.27244
0.39516 0.03721 0.25504
0.56119 0.06370 0.25883
0.76020 0.08035 0.27669
0.00000 0.26203 0.28554
0.22156 0.26775 0.29116
0.44538 0.28096 0.30045
0.63838 0.30505 0.32215
0.85219 0.32625 0.34293
0.00000 0.52829 0.31371
0.22425 0.53986 0.32108
0.50938 0.54809 0.35493
0.73265 0.57007 0.39273
0.95192 0.59186 0.41202
0.00000 0.82081 0.34514
0.22517 0.83012 0.34964
0.54345 0.81984 0.39987
0.79774 0.82243 0.44804
1.00000 0.82990 0.45761
0.00000 1.00000 0.36004
0.21577 1.00000 0.35708
0.53847 1.00000 0.41167
0.78709 0.99820 0.46977
0.97940 0.98668 0.46476
0.00000 0.01276 0.50209
0.20729 0.01754 0.50889
0.44580 0.02167 0.51514
0.61285 0.05297 0.47222
0.76811 0.08609 0.46210
0.00000 0.26390 0.52430
0.22381 0.26985 0.53215
0.47287 0.27653 0.54126
0.67662 0.30215 0.52701
0.86281 0.33362 0.53739
0.00000 0.53317 0.55552
0.25189 0.54490 0.56659
0.51511 0.55624 0.57708
0.75481 0.57406 0.59048
0.95990 0.59856 0.61245
0.00000 0.82545 0.59582
0.25511 0.83272 0.60057
0.51918 0.83478 0.60142
0.80132 0.82703 0.62972
1.00000 0.83157 0.65069
0.00000 1.00000 0.60570
0.24334 1.00000 0.59816
0.48773 1.00000 0.58180
0.77223 1.00000 0.62005
0.97823 0.98368 0.63885
0.00000 0.01452 0.73877
0.20827 0.01898 0.74557
0.44765 0.02302 0.75273
0.69110 0.02691 0.76097
0.83691 0.06931 0.69385
0.00000 0.26584 0.76436
0.22619 0.27203 0.77493
0.47667 0.27897 0.78744
0.73512 0.28655 0.80159
0.91727 0.32519 0.76195
0.00000 0.53713 0.80698
0.25509 0.54885 0.82178
0.51932 0.55978 0.83520
0.78790 0.56870 0.84547
0.99344 0.59591 0.82414
0.01800 0.82922 0.84810
0.28296 0.83433 0.85172
0.54580 0.83413 0.84979
0.80213 0.82914 0.84284
1.00000 0.82738 0.83670
0.01406 1.00000 0.84839
0.26906 1.00000 0.83117
0.50990 1.00000 0.80833
0.73878 1.00000 0.78705
0.97806 0.98155 0.80309
0.00000 0.01612 0.97535
0.20945 0.02038 0.98272
0.44970 0.02435 0.99123
0.69435 0.02823 1.00000
0.94530 0.03211 1.00000
0.00000 0.26786 1.00000
0.22868 0.27431 1.00000
0.48064 0.28148 1.00000
0.74076 0.28923 1.00000
1.00000 0.29716 1.00000
0.00000 0.54113 1.00000
0.25829 0.55271 1.00000
0.52335 0.56309 1.00000
0.79170 0.57107 1.00000
1.00000 0.57573 1.00000
0.02017 0.83154 1.00000
0.28497 0.83485 1.00000
0.54657 0.83292 1.00000
0.80096 0.82658 1.00000
1.00000 0.81093 1.00000
0.04186 1.00000 1.00000
0.29316 1.00000 1.00000
0.53096 1.00000 1.00000
0.75781 0.99909 1.00000
0.97833 0.97833 0.97833
