airu.cube
TITLE "airu look"
LUT_3D_SIZE 9
0.00000 0.00000 0.00000
0.08670 0.01270 0.03139
0.18236 0.02120 0.03925
0.26455 0.03332 0.05017
0.36056 0.04161 0.05886
0.45727 0.04985 0.06735
0.55475 0.05809 0.07572
0.65313 0.06635 0.08404
0.75260 0.07466 0.09235
0.00000 0.13458 0.04333
0.08794 0.13622 0.04723
0.20095 0.14052 0.06092
0.29222 0.14975 0.07875
0.39011 0.15828 0.08706
0.48896 0.16693 0.09538
0.58898 0.17574 0.10375
0.69037 0.18471 0.11220
0.79334 0.19389 0.12075
0.00000 0.25979 0.05495
0.08367 0.26128 0.05894
0.21820 0.26171 0.08106
0.32378 0.26874 0.10682
0.42417 0.27825 0.11530
0.52600 0.28802 0.12390
0.62945 0.29807 0.13262
0.73466 0.30839 0.14148
0.84170 0.31896 0.15047
0.00000 0.38835 0.06537
0.07898 0.39140 0.06795
0.22974 0.38823 0.10027
0.35560 0.39298 0.13669
0.46318 0.40443 0.14474
0.56855 0.41577 0.15378
0.67563 0.42731 0.16293
0.78431 0.43896 0.17216
0.89436 0.45060 0.18142
0.00000 0.52349 0.07565
0.07404 0.52926 0.07568
0.24171 0.52284 0.11857
0.38446 0.52386 0.16947
0.50226 0.53741 0.17633
0.61418 0.55009 0.18480
0.72343 0.56213 0.19401
0.83332 0.57375 0.20311
0.94333 0.58478 0.21202
0.00000 0.66687 0.08607
0.07220 0.67397 0.08586
0.25314 0.66479 0.13584
0.41326 0.66039 0.20041
0.53389 0.67298 0.20961
0.65385 0.68527 0.21594
0.76558 0.69580 0.22374
0.87324 0.70498 0.23192
0.97958 0.71303 0.23969
0.00000 0.81547 0.09624
0.07055 0.82181 0.09548
0.26201 0.80789 0.15103
0.43700 0.79562 0.22685
0.55993 0.80350 0.24065
0.67739 0.81198 0.24569
0.79316 0.81890 0.25021
0.89859 0.82400 0.25628
0.99933 0.82784 0.26255
0.00000 0.96049 0.10519
0.06858 0.96301 0.10355
0.26650 0.94212 0.16279
0.45319 0.91977 0.24861
0.57730 0.92061 0.26725
0.69037 0.92413 0.27068
0.80113 0.92643 0.27367
0.90459 0.92282 0.27481
0.99520 0.91741 0.27754
0.00000 1.00000 0.11198
0.06616 1.00000 0.10929
0.26651 1.00000 0.17066
0.46206 1.00000 0.26527
0.58411 1.00000 0.28746
0.68752 1.00000 0.28759
0.78787 1.00000 0.28766
0.88556 0.99583 0.28771
0.98102 0.98997 0.28776
0.00000 0.00917 0.14461
0.08944 0.01270 0.15042
0.19949 0.01773 0.14989
0.28811 0.02932 0.14717
0.36334 0.04441 0.15005
0.46024 0.05265 0.15864
0.55794 0.06089 0.16719
0.65659 0.06917 0.17576
0.75636 0.07750 0.18440
0.00000 0.13550 0.15829
0.09203 0.13774 0.16091
0.20901 0.14074 0.16307
0.30889 0.14874 0.16859
0.39333 0.16120 0.17890
0.49244 0.16990 0.18757
0.59277 0.17876 0.19636
0.69452 0.18781 0.20530
0.79790 0.19705 0.21442
0.00000 0.26092 0.16971
0.08891 0.26364 0.17205
0.21685 0.26592 0.17580
0.33311 0.27114 0.19002
0.42788 0.28153 0.20860
0.53006 0.29140 0.21778
0.63389 0.30155 0.22716
0.73949 0.31195 0.23672
0.84692 0.32259 0.24645
0.00000 0.38998 0.18162
0.08500 0.39392 0.18412
0.21809 0.39684 0.18926
0.35728 0.39918 0.21328
0.46738 0.40826 0.24024
0.57309 0.41967 0.25003
0.68049 0.43126 0.25993
0.78942 0.44292 0.26989
0.89963 0.45453 0.27983
0.00000 0.52587 0.19431
0.08224 0.53149 0.19706
0.21931 0.53610 0.20184
0.37592 0.53483 0.23698
0.50668 0.54161 0.27429
0.61875 0.55422 0.28343
0.72808 0.56613 0.29320
0.83790 0.57757 0.30274
0.94770 0.58836 0.31194
0.00000 0.66984 0.20768
0.08010 0.67655 0.21041
0.21936 0.68252 0.21282
0.39296 0.67589 0.25909
0.53797 0.67689 0.30931
0.65782 0.68887 0.31591
0.76924 0.69904 0.32380
0.87650 0.70784 0.33188
0.98231 0.71550 0.33938
0.00000 0.81822 0.22043
0.07789 0.82386 0.22253
0.21801 0.82869 0.22189
0.40502 0.81446 0.27724
0.56320 0.80629 0.34057
0.68026 0.81428 0.34528
0.79552 0.82073 0.34929
0.90034 0.82542 0.35476
1.00000 0.82892 0.36032
0.00000 0.96176 0.23047
0.07507 0.96350 0.23138
0.21589 0.96368 0.22910
0.40993 0.94103 0.28954
0.57874 0.92228 0.36390
0.69224 0.92495 0.36830
0.80243 0.92684 0.37039
0.90344 0.92100 0.36930
0.99360 0.91564 0.37063
0.00000 1.00000 0.23626
0.07161 1.00000 0.23582
0.21114 1.00000 0.23193
0.40874 1.00000 0.29624
0.58114 1.00000 0.37609
0.68749 1.00000 0.38051
0.78746 1.00000 0.37914
0.88487 0.99392 0.37784
0.98016 0.98829 0.37663
0.00000 0.01063 0.26456
0.08920 0.01362 0.26897
0.20659 0.01603 0.27244
0.31459 0.02211 0.26740
0.39516 0.03721 0.25504
0.46327 0.05545 0.25005
0.56119 0.06370 0.25883
0.66011 0.07199 0.26769
0.76020 0.08035 0.27669
0.00000 0.13627 0.27648
0.09262 0.13850 0.27922
0.21223 0.14074 0.28189
0.32647 0.14529 0.28048
0.41813 0.15713 0.27705
0.49598 0.17289 0.28001
0.59662 0.18181 0.28927
0.69874 0.19092 0.29875
0.80253 0.20024 0.30848
0.00000 0.26203 0.28554
0.09988 0.26481 0.28830
0.22156 0.26775 0.29116
0.34199 0.27168 0.29389
0.44538 0.28096 0.30045
0.53417 0.29482 0.31208
0.63838 0.30505 0.32215
0.74438 0.31554 0.33244
0.85219 0.32625 0.34293
0.00000 0.39166 0.29841
0.09886 0.39572 0.30162
0.22328 0.40004 0.30500
0.35689 0.40404 0.31029
0.47765 0.41128 0.32666
0.57766 0.42359 0.34678
0.68536 0.43522 0.35743
0.79452 0.44688 0.36809
0.90486 0.45844 0.37866
0.00000 0.52829 0.31371
0.09653 0.53401 0.31737
0.22425 0.53986 0.32108
0.36490 0.54417 0.32839
0.50938 0.54809 0.35493
0.62329 0.55830 0.38247
0.73265 0.57007 0.39273
0.84238 0.58131 0.40262
0.95192 0.59186 0.41202
0.00000 0.67280 0.33007
0.09477 0.67940 0.33363
0.22553 0.68563 0.33697
0.37061 0.68932 0.34387
0.53049 0.68702 0.38069
0.66169 0.69235 0.41601
0.77276 0.70216 0.42387
0.87959 0.71058 0.43174
0.98487 0.71784 0.43887
0.00000 0.82081 0.34514
0.09275 0.82602 0.34765
0.22517 0.83012 0.34964
0.37102 0.83109 0.35374
0.54345 0.81984 0.39987
0.68301 0.81644 0.44464
0.79774 0.82243 0.44804
0.90197 0.82672 0.45282
1.00000 0.82990 0.45761
0.00000 0.96274 0.35577
0.08988 0.96381 0.35643
0.22183 0.96335 0.35646
0.36483 0.96003 0.35623
0.54687 0.93867 0.41096
0.69403 0.92566 0.46543
0.80179 0.92502 0.46547
0.90231 0.91918 0.46284
0.99204 0.91389 0.46281
0.00000 1.00000 0.36004
0.08616 1.00000 0.35879
0.21577 1.00000 0.35708
0.35298 1.00000 0.35152
0.53847 1.00000 0.41167
0.68748 1.00000 0.47252
0.78709 0.99820 0.46977
0.88424 0.99208 0.46717
0.97940 0.98668 0.46476
0.00000 0.01176 0.38352
0.08916 0.01447 0.38734
0.20690 0.01679 0.39065
0.32551 0.01894 0.39369
0.43107 0.02630 0.38492
0.50336 0.04505 0.36327
0.56450 0.06651 0.35064
0.66369 0.07482 0.35984
0.76412 0.08321 0.36925
0.00000 0.13703 0.39476
0.09324 0.13926 0.39767
0.21303 0.14151 0.40061
0.33374 0.14380 0.40364
0.44539 0.14999 0.39885
0.52893 0.16577 0.38662
0.60055 0.18488 0.38251
0.70304 0.19406 0.39258
0.80724 0.20345 0.40296
0.00000 0.26296 0.40477
0.10074 0.26579 0.40801
0.22267 0.26879 0.41145
0.34602 0.27197 0.41511
0.46422 0.27781 0.41467
0.55980 0.29129 0.41270
0.64294 0.30859 0.41761
0.74932 0.31916 0.42866
0.85748 0.32993 0.43991
0.00000 0.39333 0.41651
0.11036 0.39750 0.42050
0.23528 0.40193 0.42471
0.36212 0.40658 0.42912
0.48787 0.41235 0.43347
0.59591 0.42367 0.44205
0.69023 0.43918 0.45541
0.79960 0.45082 0.46675
0.91003 0.46232 0.47790
0.00000 0.53077 0.43388
0.11093 0.53656 0.43848
0.23919 0.54244 0.44311
0.36942 0.54828 0.44768
0.50989 0.55334 0.45446
0.63390 0.56149 0.47246
0.73715 0.57396 0.49256
0.84674 0.58498 0.50272
0.95599 0.59526 0.51221
0.00000 0.67572 0.45322
0.10952 0.68218 0.45755
0.24069 0.68818 0.46154
0.37319 0.69353 0.46505
0.51956 0.69596 0.47298
0.66432 0.69775 0.49947
0.77615 0.70514 0.52390
0.88253 0.71317 0.53146
0.98725 0.72005 0.53811
0.00000 0.82323 0.47030
0.10765 0.82798 0.47306
0.24017 0.83154 0.47510
0.37275 0.83381 0.47636
0.52080 0.83164 0.48297
0.67592 0.82397 0.51770
0.79984 0.82398 0.54642
0.90347 0.82791 0.55044
1.00000 0.83078 0.55441
0.00000 0.96343 0.48098
0.10465 0.96383 0.48121
0.23633 0.96273 0.48064
0.36680 0.96024 0.47933
0.51317 0.95283 0.48347
0.67657 0.93558 0.52635
0.80115 0.92319 0.55960
0.90119 0.91739 0.55545
0.99053 0.91218 0.55411
0.00000 1.00000 0.48321
0.10063 1.00000 0.48104
0.22974 1.00000 0.47834
0.35513 1.00000 0.47287
0.49445 1.00000 0.47163
0.65934 1.00000 0.51938
0.78677 0.99621 0.55956
0.88370 0.99031 0.55573
0.97875 0.98514 0.55216
0.00000 0.01276 0.50209
0.08926 0.01529 0.50563
0.20729 0.01754 0.50889
0.32613 0.01964 0.51202
0.44580 0.02167 0.51514
0.54883 0.03043 0.50293
0.61285 0.05297 0.47222
0.66735 0.07766 0.45223
0.76811 0.08609 0.46210
0.00000 0.13779 0.51315
0.09388 0.14002 0.51629
0.21387 0.14228 0.51955
0.33480 0.14460 0.52299
0.45690 0.14698 0.52667
0.56609 0.15491 0.51860
0.64165 0.17477 0.49771
0.70741 0.19722 0.48681
0.81203 0.20669 0.49788
0.00000 0.26390 0.52430
0.10162 0.26679 0.52808
0.22381 0.26985 0.53215
0.34748 0.27310 0.53654
0.47287 0.27653 0.54126
0.58884 0.28440 0.53756
0.67662 0.30215 0.52701
0.75430 0.32280 0.52537
0.86281 0.33362 0.53739
0.00000 0.39471 0.53822
0.11144 0.39897 0.54305
0.23671 0.40348 0.54817
0.36392 0.40820 0.55352
0.49318 0.41307 0.55903
0.61646 0.42087 0.55972
0.71618 0.43633 0.55931
0.80465 0.45475 0.56583
0.91513 0.46617 0.57751
0.00000 0.53317 0.55552
0.12306 0.53902 0.56105
0.25189 0.54490 0.56659
0.38265 0.55069 0.57198
0.51511 0.55624 0.57708
0.64503 0.56254 0.58170
0.75481 0.57406 0.59048
0.85098 0.58856 0.60297
0.95990 0.59856 0.61245
0.00000 0.67859 0.57709
0.12434 0.68488 0.58211
0.25589 0.69062 0.58663
0.38860 0.69563 0.59049
0.52194 0.69975 0.59356
0.66473 0.70204 0.59883
0.78533 0.70713 0.61497
0.88531 0.71564 0.63097
0.98946 0.72212 0.63705
0.00000 0.82545 0.59582
0.12256 0.82971 0.59866
0.25511 0.83272 0.60057
0.38753 0.83442 0.60150
0.51918 0.83478 0.60142
0.66445 0.83095 0.60689
0.80132 0.82703 0.62972
0.90487 0.82898 0.64759
1.00000 0.83157 0.65069
0.00000 0.96383 0.60599
0.11938 0.96358 0.60563
0.25074 0.96186 0.60430
0.38072 0.95881 0.60210
0.50891 0.95463 0.59913
0.65412 0.94510 0.60433
0.79310 0.92577 0.63090
0.90011 0.91561 0.64716
0.98907 0.91051 0.64454
0.00000 1.00000 0.60570
0.11501 1.00000 0.60252
0.24334 1.00000 0.59816
0.36727 1.00000 0.58992
0.48773 1.00000 0.58180
0.62673 1.00000 0.58385
0.77223 1.00000 0.62005
0.88324 0.98860 0.64353
0.97823 0.98368 0.63885
0.00000 0.01367 0.62047
0.08947 0.01607 0.62389
0.20775 0.01826 0.62719
0.32681 0.02034 0.63047
0.44670 0.02235 0.63384
0.56756 0.02431 0.63739
0.66807 0.03460 0.62186
0.72391 0.06103 0.58228
0.77218 0.08897 0.55527
0.00000 0.13854 0.63168
0.09456 0.14079 0.63510
0.21473 0.14306 0.63874
0.33590 0.14540 0.64265
0.45829 0.14780 0.64689
0.58214 0.15030 0.65152
0.68895 0.16013 0.64018
0.75662 0.18416 0.61067
0.81689 0.20995 0.59327
0.00000 0.26486 0.64415
0.10252 0.26781 0.64853
0.22499 0.27093 0.65330
0.34898 0.27424 0.65848
0.47474 0.27774 0.66406
0.60249 0.28141 0.67000
0.71609 0.29142 0.66280
0.79585 0.31349 0.64348
0.86815 0.33732 0.63536
0.00000 0.39613 0.66046
0.11254 0.40048 0.66618
0.23816 0.40507 0.67225
0.36575 0.40984 0.67857
0.49539 0.41474 0.68506
0.62706 0.41967 0.69154
0.74718 0.42952 0.68790
0.83788 0.44899 0.67798
0.92015 0.46999 0.67746
0.00000 0.53515 0.68092
0.12431 0.54102 0.68743
0.25349 0.54689 0.69388
0.38455 0.55261 0.70010
0.51724 0.55803 0.70591
0.65117 0.56301 0.71110
0.77611 0.57081 0.71001
0.87507 0.58563 0.70809
0.96365 0.60175 0.71270
0.00657 0.68129 0.70227
0.13704 0.68738 0.70788
0.26897 0.69284 0.71279
0.40190 0.69750 0.71685
0.53528 0.70122 0.71989
0.66846 0.70387 0.72181
0.79588 0.70683 0.72284
0.90009 0.71458 0.72796
0.99151 0.72407 0.73564
0.00523 0.82747 0.72158
0.13747 0.83121 0.72434
0.27000 0.83366 0.72596
0.40218 0.83478 0.72637
0.53340 0.83457 0.72559
0.66311 0.83310 0.72368
0.80085 0.82930 0.72455
0.91152 0.82914 0.73646
1.00000 0.83157 0.74578
0.00202 0.96395 0.73068
0.13404 0.96305 0.72957
0.26503 0.96073 0.72735
0.39450 0.95717 0.72414
0.52208 0.95257 0.72011
0.64612 0.94512 0.71387
0.78008 0.92878 0.71190
0.89914 0.91500 0.72649
0.98767 0.90887 0.73413
0.00000 1.00000 0.72745
0.12929 1.00000 0.72319
0.25628 1.00000 0.71542
0.37927 1.00000 0.70548
0.49887 1.00000 0.69575
0.61535 1.00000 0.68632
0.75073 1.00000 0.68891
0.87811 0.99002 0.71443
0.97784 0.98229 0.72486
0.00000 0.01452 0.73877
0.08977 0.01683 0.74217
0.20827 0.01898 0.74557
0.32754 0.02103 0.74906
0.44765 0.02302 0.75273
0.56877 0.02497 0.75668
0.69110 0.02691 0.76097
0.78913 0.03887 0.74217
0.83691 0.06931 0.69385
0.00000 0.13930 0.75037
0.09526 0.14155 0.75413
0.21563 0.14385 0.75820
0.33704 0.14621 0.76264
0.45973 0.14864 0.76751
0.58394 0.15117 0.77286
0.70993 0.15381 0.77870
0.81433 0.16569 0.76397
0.87410 0.19400 0.72581
0.00000 0.26584 0.76436
0.10344 0.26885 0.76940
0.22619 0.27203 0.77493
0.35052 0.27541 0.78095
0.47667 0.27897 0.78744
0.60483 0.28269 0.79435
0.73512 0.28655 0.80159
0.84593 0.29881 0.79041
0.91727 0.32519 0.76195
0.00000 0.39758 0.78326
0.11365 0.40201 0.78991
0.23963 0.40667 0.79696
0.36760 0.41149 0.80428
0.49761 0.41641 0.81173
0.62961 0.42133 0.81913
0.76339 0.42614 0.82628
0.87933 0.43803 0.81740
0.96012 0.46136 0.79725
0.00000 0.53713 0.80698
0.12558 0.54302 0.81444
0.25509 0.54885 0.82178
0.38643 0.55449 0.82877
0.51932 0.55978 0.83520
0.65333 0.56456 0.84084
0.78790 0.56870 0.84547
0.90638 0.57798 0.83749
0.99344 0.59591 0.82414
0.00758 0.68342 0.83119
0.13832 0.68932 0.83736
0.27043 0.69452 0.84265
0.40342 0.69888 0.84686
0.53670 0.70224 0.84984
0.66963 0.70451 0.85147
0.80156 0.70566 0.85170
0.92025 0.70974 0.84455
1.00000 0.72024 0.83762
0.01800 0.82922 0.84810
0.15043 0.83243 0.85060
0.28296 0.83433 0.85172
0.41495 0.83488 0.85144
0.54580 0.83413 0.84979
0.67500 0.83217 0.84687
0.80213 0.82914 0.84284
0.92081 0.82699 0.83865
1.00000 0.82738 0.83670
0.01685 0.96378 0.85495
0.14862 0.96225 0.85294
0.27920 0.95937 0.84970
0.40813 0.95533 0.84540
0.53509 0.95036 0.84024
0.65649 0.93983 0.83012
0.77341 0.92770 0.81854
0.89696 0.91411 0.81166
0.99064 0.90661 0.81691
0.01406 1.00000 0.84839
0.14346 1.00000 0.84295
0.26906 1.00000 0.83117
0.39113 1.00000 0.81960
0.50990 1.00000 0.80833
0.62566 1.00000 0.79746
0.73878 1.00000 0.78705
0.86754 0.99287 0.78754
0.97806 0.98155 0.80309
0.00000 0.01533 0.85705
0.09013 0.01758 0.86051
0.20884 0.01968 0.86407
0.32831 0.02171 0.86782
0.44865 0.02368 0.87185
0.57004 0.02563 0.87625
0.69269 0.02757 0.88110
0.81685 0.02950 0.88646
0.91242 0.04331 0.86435
0.00000 0.14006 0.86925
0.09598 0.14233 0.87341
0.21656 0.14464 0.87796
0.33822 0.14702 0.88299
0.46122 0.14949 0.88855
0.58579 0.15206 0.89468
0.71220 0.15472 0.90139
0.84067 0.15750 0.90866
0.94249 0.17159 0.89025
0.00000 0.26684 0.88495
0.10438 0.26991 0.89072
0.22742 0.27316 0.89706
0.35209 0.27660 0.90398
0.47863 0.28022 0.91143
0.60721 0.28399 0.91934
0.73793 0.28789 0.92758
0.87077 0.29185 0.93599
0.97808 0.30645 0.92012
0.00000 0.39906 0.90663
0.11479 0.40357 0.91426
0.24112 0.40829 0.92231
0.36947 0.41316 0.93063
0.49985 0.41809 0.93905
0.63216 0.42298 0.94733
0.76617 0.42773 0.95523
0.90149 0.43222 0.96249
1.00000 0.44613 0.94724
0.00000 0.53913 0.93370
0.12685 0.54501 0.94209
0.25669 0.55080 0.95027
0.38830 0.55634 0.95797
0.52136 0.56147 0.96493
0.65540 0.56605 0.97089
0.78986 0.56993 0.97563
0.92408 0.57301 0.97895
1.00000 0.58379 0.96287
0.00860 0.68549 0.96060
0.13960 0.69117 0.96723
0.27187 0.69611 0.97277
0.40488 0.70014 0.97701
0.53803 0.70314 0.97978
0.67068 0.70503 0.98097
0.80219 0.70579 0.98056
0.93198 0.70543 0.97858
1.00000 0.71094 0.96240
0.01908 0.83045 0.97819
0.15156 0.83322 0.98040
0.28399 0.83467 0.98101
0.41574 0.83477 0.98001
0.54623 0.83360 0.97749
0.67497 0.83125 0.97356
0.80159 0.82791 0.96844
0.92587 0.82376 0.96235
1.00000 0.81917 0.94395
0.02995 0.96334 0.97927
0.16154 0.96122 0.97621
0.29178 0.95783 0.97182
0.42026 0.95336 0.96632
0.54608 0.94697 0.95883
0.66566 0.93468 0.94534
0.78187 0.92269 0.93211
0.89502 0.91111 0.91927
0.99795 0.90217 0.90839
0.02865 1.00000 0.96848
0.15705 1.00000 0.95890
0.28169 1.00000 0.94545
0.40287 1.00000 0.93231
0.52083 1.00000 0.91958
0.63592 1.00000 0.90737
0.74851 1.00000 0.89571
0.85906 0.99289 0.88457
0.97848 0.98092 0.88008
0.00000 0.01612 0.97535
0.09055 0.01830 0.97894
0.20945 0.02038 0.98272
0.32912 0.02238 0.98678
0.44970 0.02435 0.99123
0.57137 0.02629 0.99614
0.69435 0.02823 1.00000
0.81891 0.03016 1.00000
0.94530 0.03211 1.00000
0.00000 0.14083 0.98835
0.09673 0.14311 0.99295
0.21752 0.14544 0.99806
0.33944 0.14785 1.00000
0.46276 0.15035 1.00000
0.58771 0.15295 1.00000
0.71455 0.15565 1.00000
0.84349 0.15846 1.00000
0.97466 0.16136 1.00000
0.00000 0.26786 1.00000
0.10535 0.27099 1.00000
0.22868 0.27431 1.00000
0.35371 0.27781 1.00000
0.48064 0.28148 1.00000
0.60963 0.28530 1.00000
0.74076 0.28923 1.00000
0.87398 0.29320 1.00000
1.00000 0.29716 1.00000
0.00000 0.40056 1.00000
0.11594 0.40515 1.00000
0.24264 0.40993 1.00000
0.37136 0.41483 1.00000
0.50209 0.41976 1.00000
0.63470 0.42462 1.00000
0.76890 0.42929 1.00000
0.90429 0.43366 1.00000
1.00000 0.43760 1.00000
0.00000 0.54113 1.00000
0.12813 0.54700 1.00000
0.25829 0.55271 1.00000
0.39015 0.55813 1.00000
0.52335 0.56309 1.00000
0.65740 0.56745 1.00000
0.79170 0.57107 1.00000
0.92560 0.57385 1.00000
1.00000 0.57573 1.00000
0.00962 0.68749 1.00000
0.14087 0.69294 1.00000
0.27327 0.69758 1.00000
0.40627 0.70128 1.00000
0.53927 0.70391 1.00000
0.67161 0.70541 1.00000
0.80268 0.70579 1.00000
0.93191 0.70507 1.00000
1.00000 0.70336 1.00000
0.02017 0.83154 1.00000
0.15267 0.83386 1.00000
0.28497 0.83485 1.00000
0.41646 0.83451 1.00000
0.54657 0.83292 1.00000
0.67485 0.83022 1.00000
0.80096 0.82658 1.00000
0.92382 0.82140 1.00000
1.00000 0.81093 1.00000
0.03105 0.96278 1.00000
0.16242 0.96021 1.00000
0.29235 0.95642 1.00000
0.42045 0.95165 1.00000
0.54456 0.94277 1.00000
0.66358 0.93057 1.00000
0.77932 0.91870 1.00000
0.89208 0.90730 1.00000
1.00000 0.89648 1.00000
0.04186 1.00000 1.00000
0.16933 1.00000 1.00000
0.29316 1.00000 1.00000
0.41361 1.00000 1.00000
0.53096 1.00000 1.00000
0.64556 1.00000 1.00000
0.75781 0.99909 1.00000
0.86823 0.98848 0.99115
0.97833 0.97833 0.97833
