film8mm.cube
TITLE "8mm home movie"
LUT_3D_SIZE 5
0.00000 0.00870 0.01807
0.38059 0.02457 0.03576
0.62004 0.03382 0.04531
0.86118 0.04327 0.05484
1.00000 0.05281 0.06427
0.02878 0.31441 0.05317
0.29432 0.31325 0.06726
0.55541 0.31537 0.07680
0.80656 0.31876 0.08559
1.00000 0.32253 0.09397
0.07682 0.56178 0.07923
0.32152 0.56036 0.09188
0.55440 0.55909 0.10456
0.78932 0.55789 0.11196
1.00000 0.55692 0.11888
0.12201 0.78241 0.10116
0.34962 0.77711 0.11232
0.56776 0.77278 0.12356
0.77962 0.76978 0.13431
0.99680 0.76838 0.14075
0.16452 0.98049 0.11977
0.37972 0.97674 0.13054
0.58959 0.97527 0.14157
0.78278 0.95900 0.14973
0.96761 0.94419 0.15701
0.00000 0.01860 0.68837
0.34306 0.02768 0.36372
0.60065 0.03701 0.32573
0.84880 0.04650 0.31639
1.00000 0.05605 0.31532
0.01973 0.31344 0.31543
0.29425 0.31374 0.31583
0.55476 0.31644 0.31835
0.80449 0.32003 0.32154
1.00000 0.32382 0.32473
0.06878 0.56126 0.31795
0.32249 0.55992 0.32115
0.55448 0.55867 0.32858
0.78785 0.55752 0.33124
1.00000 0.55670 0.33372
0.11449 0.78052 0.32318
0.35107 0.77551 0.32581
0.56835 0.77159 0.33302
0.77948 0.76911 0.34034
0.99624 0.76830 0.34391
0.15758 0.97896 0.32883
0.38206 0.97599 0.33287
0.58875 0.97065 0.34003
0.77961 0.95361 0.34237
0.96369 0.93986 0.34492
0.00000 0.02165 0.90189
0.32237 0.03083 0.64647
0.58721 0.04022 0.59018
0.83928 0.04974 0.56968
1.00000 0.05928 0.56101
0.02350 0.31312 0.56568
0.29546 0.31449 0.55920
0.55434 0.31761 0.55600
0.80256 0.32131 0.55395
1.00000 0.32510 0.55212
0.06090 0.56078 0.55314
0.31302 0.55949 0.55127
0.55457 0.55826 0.54938
0.78645 0.55719 0.54747
1.00000 0.55654 0.54573
0.10710 0.77872 0.54216
0.34241 0.77404 0.54064
0.56906 0.77058 0.54006
0.77954 0.76864 0.54430
0.99595 0.76842 0.54537
0.15077 0.97769 0.53590
0.37484 0.97550 0.53746
0.58697 0.96446 0.53426
0.77673 0.94860 0.53165
0.96006 0.93586 0.52993
0.00000 0.02474 1.00000
0.31001 0.03400 0.90713
0.57766 0.04345 0.84408
0.83184 0.05299 0.81665
1.00000 0.06251 0.80212
0.02727 0.31327 0.81042
0.29687 0.31543 0.79835
0.55409 0.31883 0.78998
0.80073 0.32261 0.78293
1.00000 0.32637 0.77620
0.06416 0.56033 0.78047
0.31445 0.55906 0.77376
0.55452 0.55787 0.76711
0.78514 0.55691 0.76076
1.00000 0.55646 0.75506
0.09984 0.77702 0.75822
0.33394 0.77271 0.75284
0.56040 0.76974 0.74865
0.77979 0.76837 0.74637
0.99592 0.76875 0.74530
0.14407 0.97669 0.74117
0.36751 0.97527 0.74073
0.57707 0.95869 0.72822
0.77412 0.94394 0.71781
0.95672 0.93216 0.71224
0.00000 0.02786 1.00000
0.30235 0.03719 1.00000
0.57077 0.04668 1.00000
0.82593 0.05623 1.00000
1.00000 0.06572 1.00000
0.03105 0.31378 1.00000
0.29843 0.31650 1.00000
0.55396 0.32010 1.00000
0.79896 0.32389 1.00000
1.00000 0.32762 0.99703
0.06778 0.55990 1.00000
0.31627 0.55864 0.99288
0.55470 0.55750 0.98171
0.78393 0.55669 0.97121
1.00000 0.55648 0.96185
0.10232 0.77542 0.96764
0.33500 0.77153 0.95883
0.56041 0.76908 0.95176
0.78023 0.76830 0.94674
0.99615 0.76928 0.94387
0.13747 0.97595 0.94484
0.35861 0.97030 0.93774
0.56631 0.95332 0.91925
0.76467 0.93963 0.90392
0.95361 0.92876 0.89204
