film8mm.cube
TITLE "8mm home movie"
LUT_3D_SIZE 9
0.00000 0.00870 0.01807
0.26201 0.02004 0.03098
0.38059 0.02457 0.03576
0.49999 0.02916 0.04053
0.62004 0.03382 0.04531
0.74052 0.03853 0.05008
0.86118 0.04327 0.05484
0.98175 0.04803 0.05958
1.00000 0.05281 0.06427
0.00489 0.18750 0.03937
0.15581 0.18168 0.04651
0.29779 0.17987 0.05182
0.43404 0.18014 0.05657
0.56597 0.18162 0.06129
0.69487 0.18384 0.06597
0.82135 0.18651 0.07060
0.94568 0.18945 0.07516
1.00000 0.19257 0.07963
0.02878 0.31441 0.05317
0.16490 0.31322 0.05988
0.29432 0.31325 0.06726
0.42588 0.31407 0.07227
0.55541 0.31537 0.07680
0.68225 0.31698 0.08124
0.80656 0.31876 0.08559
0.92839 0.32063 0.08984
1.00000 0.32253 0.09397
0.05296 0.44036 0.06660
0.18246 0.44015 0.07300
0.30704 0.44034 0.08003
0.42893 0.44076 0.08690
0.55391 0.44131 0.09136
0.67689 0.44191 0.09545
0.79731 0.44253 0.09943
0.91521 0.44314 0.10328
1.00000 0.44375 0.10703
0.07682 0.56178 0.07923
0.20135 0.56103 0.08529
0.32152 0.56036 0.09188
0.43919 0.55971 0.09831
0.55440 0.55909 0.10456
0.67295 0.55847 0.10836
0.78932 0.55789 0.11196
0.90337 0.55736 0.11546
1.00000 0.55692 0.11888
0.09989 0.67599 0.09077
0.21979 0.67413 0.09646
0.33572 0.67232 0.10260
0.44929 0.67057 0.10859
0.56061 0.66892 0.11443
0.66993 0.66740 0.12010
0.78288 0.66607 0.12343
0.89394 0.66497 0.12670
1.00000 0.66412 0.12993
0.12201 0.78241 0.10116
0.23756 0.77966 0.10654
0.34962 0.77711 0.11232
0.45963 0.77480 0.11799
0.56776 0.77278 0.12356
0.67419 0.77109 0.12906
0.77962 0.76978 0.13431
0.88879 0.76887 0.13752
0.99680 0.76838 0.14075
0.14341 0.88281 0.11067
0.25512 0.87992 0.11590
0.36401 0.87744 0.12146
0.47129 0.87540 0.12697
0.57714 0.87385 0.13245
0.68178 0.87278 0.13790
0.78542 0.87222 0.14336
0.88907 0.87217 0.14848
0.99236 0.86885 0.15110
0.16452 0.98049 0.11977
0.27315 0.97833 0.12502
0.37972 0.97674 0.13054
0.48514 0.97572 0.13605
0.58959 0.97527 0.14157
0.68795 0.96767 0.14583
0.78278 0.95900 0.14973
0.87554 0.95119 0.15361
0.96761 0.94419 0.15701
0.00000 0.01710 0.58203
0.22227 0.02157 0.25147
0.35880 0.02612 0.20789
0.48546 0.03074 0.19346
0.60942 0.03542 0.18799
0.73232 0.04013 0.18640
0.85457 0.04488 0.18680
0.97621 0.04965 0.18833
1.00000 0.05443 0.19053
0.00000 0.18487 0.19082
0.15367 0.18074 0.18709
0.29614 0.17978 0.18637
0.43212 0.18054 0.18726
0.56398 0.18231 0.18907
0.69285 0.18470 0.19144
0.81928 0.18748 0.19414
0.94349 0.19050 0.19701
1.00000 0.19365 0.19997
0.02415 0.31383 0.18532
0.16425 0.31312 0.18742
0.29473 0.31346 0.19200
0.42588 0.31447 0.19517
0.55505 0.31589 0.19808
0.68155 0.31757 0.20105
0.80551 0.31939 0.20402
0.92697 0.32128 0.20693
1.00000 0.32318 0.20978
0.04873 0.44023 0.19134
0.18228 0.44018 0.19434
0.30786 0.44046 0.19934
0.42934 0.44094 0.20484
0.55390 0.44151 0.20798
0.67646 0.44212 0.21079
0.79647 0.44274 0.21351
0.91395 0.44335 0.21613
1.00000 0.44395 0.21867
0.07278 0.56151 0.19904
0.20138 0.56080 0.20198
0.32238 0.56014 0.20679
0.43963 0.55950 0.21195
0.55444 0.55887 0.21697
0.67259 0.55827 0.21957
0.78857 0.55770 0.22199
0.90228 0.55720 0.22435
1.00000 0.55680 0.22666
0.09598 0.67536 0.20623
0.22000 0.67351 0.20888
0.33655 0.67172 0.21340
0.44974 0.66999 0.21822
0.56070 0.66838 0.22293
0.66972 0.66693 0.22749
0.78238 0.66567 0.22978
0.89320 0.66465 0.23206
1.00000 0.66390 0.23437
0.11823 0.78146 0.21256
0.23799 0.77877 0.21498
0.35048 0.77629 0.21936
0.46018 0.77408 0.22400
0.56804 0.77216 0.22860
0.67425 0.77060 0.23319
0.77953 0.76942 0.23760
0.88856 0.76865 0.24004
0.99649 0.76832 0.24256
0.13977 0.88178 0.21843
0.25586 0.87903 0.22084
0.36499 0.87670 0.22531
0.47204 0.87482 0.23000
0.57772 0.87343 0.23472
0.68224 0.87254 0.23949
0.78579 0.87215 0.24433
0.88941 0.87227 0.24890
0.98942 0.86621 0.24969
0.16103 0.97969 0.22456
0.27428 0.97772 0.22714
0.38088 0.97633 0.23191
0.48616 0.97551 0.23683
0.58973 0.97391 0.24147
0.68659 0.96463 0.24394
0.78116 0.95625 0.24648
0.87370 0.94873 0.24911
0.96561 0.94199 0.25134
0.00000 0.01860 0.68837
0.19938 0.02310 0.42611
0.34306 0.02768 0.36372
0.47400 0.03232 0.33816
0.60065 0.03701 0.32573
0.72533 0.04174 0.31941
0.84880 0.04650 0.31639
0.97127 0.05127 0.31527
1.00000 0.05605 0.31532
0.00128 0.18296 0.33263
0.15325 0.18016 0.32292
0.29489 0.17989 0.31802
0.43055 0.18105 0.31581
0.56228 0.18307 0.31518
0.69106 0.18561 0.31554
0.81739 0.18849 0.31650
0.94145 0.19156 0.31782
1.00000 0.19473 0.31934
0.01973 0.31344 0.31543
0.15914 0.31314 0.31522
0.29425 0.31374 0.31583
0.42596 0.31491 0.31695
0.55476 0.31644 0.31835
0.68090 0.31818 0.31992
0.80449 0.32003 0.32154
0.92558 0.32192 0.32316
1.00000 0.32382 0.32473
0.04454 0.44017 0.31498
0.17765 0.44025 0.31649
0.30776 0.44061 0.31810
0.42976 0.44112 0.32189
0.55390 0.44172 0.32374
0.67604 0.44233 0.32529
0.79563 0.44295 0.32677
0.91271 0.44355 0.32817
1.00000 0.44416 0.32951
0.06878 0.56126 0.31795
0.19698 0.56057 0.31958
0.32249 0.55992 0.32115
0.44007 0.55929 0.32478
0.55448 0.55867 0.32858
0.67224 0.55807 0.32998
0.78785 0.55752 0.33124
0.90121 0.55705 0.33248
1.00000 0.55670 0.33372
0.09211 0.67473 0.32086
0.21574 0.67290 0.32227
0.33685 0.67112 0.32363
0.45019 0.66943 0.32708
0.56081 0.66787 0.33068
0.66954 0.66648 0.33417
0.78191 0.66529 0.33545
0.89250 0.66436 0.33679
1.00000 0.66372 0.33822
0.11449 0.78052 0.32318
0.23390 0.77790 0.32449
0.35107 0.77551 0.32581
0.46075 0.77339 0.32935
0.56835 0.77159 0.33302
0.67435 0.77016 0.33674
0.77948 0.76911 0.34034
0.88839 0.76849 0.34205
0.99624 0.76830 0.34391
0.13617 0.88080 0.32553
0.25198 0.87819 0.32701
0.36598 0.87601 0.32859
0.47282 0.87429 0.33249
0.57834 0.87307 0.33651
0.68273 0.87235 0.34064
0.78621 0.87214 0.34490
0.88883 0.87145 0.34855
0.98658 0.86365 0.34732
0.15758 0.97896 0.32883
0.27063 0.97719 0.33072
0.38206 0.97599 0.33287
0.48720 0.97536 0.33724
0.58875 0.97065 0.34003
0.68530 0.96168 0.34111
0.77961 0.95361 0.34237
0.87194 0.94636 0.34380
0.96369 0.93986 0.34492
0.00000 0.02012 0.79500
0.18484 0.02465 0.57816
0.33132 0.02925 0.50881
0.46484 0.03391 0.47674
0.59334 0.03862 0.45954
0.71934 0.04336 0.44969
0.84374 0.04812 0.44392
0.96684 0.05290 0.44060
1.00000 0.05767 0.43878
0.00312 0.18161 0.46930
0.15313 0.17986 0.45533
0.29397 0.18016 0.44723
0.42929 0.18166 0.44249
0.56083 0.18388 0.43979
0.68948 0.18656 0.43837
0.81565 0.18951 0.43775
0.93952 0.19263 0.43762
1.00000 0.19583 0.43777
0.02161 0.31321 0.44132
0.16025 0.31326 0.43916
0.29482 0.31409 0.43807
0.42611 0.31540 0.43766
0.55453 0.31701 0.43765
0.68030 0.31880 0.43786
0.80351 0.32067 0.43818
0.92421 0.32257 0.43852
1.00000 0.32446 0.43884
0.04041 0.44015 0.43757
0.17307 0.44035 0.43766
0.30279 0.44077 0.43792
0.42976 0.44132 0.43825
0.55392 0.44192 0.43865
0.67563 0.44254 0.43895
0.79480 0.44315 0.43920
0.91147 0.44376 0.43940
1.00000 0.44437 0.43955
0.06482 0.56102 0.43598
0.19261 0.56035 0.43633
0.31774 0.55970 0.43663
0.44027 0.55907 0.43688
0.55452 0.55846 0.43938
0.67190 0.55788 0.43960
0.78714 0.55735 0.43973
0.90017 0.55692 0.43988
1.00000 0.55661 0.44007
0.08827 0.67410 0.43465
0.21152 0.67228 0.43486
0.33228 0.67054 0.43503
0.45063 0.66889 0.43520
0.56094 0.66738 0.43770
0.66938 0.66605 0.44016
0.78148 0.66495 0.44047
0.89185 0.66411 0.44090
1.00000 0.66358 0.44148
0.11078 0.77961 0.43304
0.22985 0.77706 0.43327
0.34672 0.77476 0.43357
0.46134 0.77274 0.43405
0.56869 0.77106 0.43683
0.67449 0.76976 0.43973
0.77949 0.76885 0.44257
0.88828 0.76838 0.44360
0.99607 0.76834 0.44485
0.13260 0.87987 0.43199
0.24814 0.87740 0.43259
0.36191 0.87537 0.43335
0.47363 0.87382 0.43449
0.57899 0.87277 0.43784
0.68327 0.87222 0.44138
0.78668 0.87218 0.44511
0.88633 0.86870 0.44659
0.98385 0.86119 0.44401
0.15416 0.97829 0.43260
0.26701 0.97671 0.43384
0.37856 0.97571 0.43530
0.48827 0.97527 0.43729
0.58784 0.96750 0.43761
0.68408 0.95884 0.43738
0.77814 0.95106 0.43741
0.87026 0.94407 0.43771
0.96184 0.93782 0.43777
0.00000 0.02165 0.90189
0.17505 0.02621 0.71747
0.32237 0.03083 0.64647
0.45742 0.03550 0.61066
0.58721 0.04022 0.59018
0.71418 0.04497 0.57766
0.83928 0.04974 0.56968
0.96287 0.05452 0.56448
1.00000 0.05928 0.56101
0.00496 0.18070 0.60195
0.15325 0.17978 0.58493
0.29333 0.18057 0.57434
0.42828 0.18235 0.56753
0.55960 0.18475 0.56305
0.68807 0.18754 0.56004
0.81406 0.19056 0.55796
0.93770 0.19371 0.55645
1.00000 0.19692 0.55528
0.02350 0.31312 0.56568
0.16141 0.31347 0.56182
0.29546 0.31449 0.55920
0.42631 0.31592 0.55736
0.55434 0.31761 0.55600
0.67973 0.31943 0.55491
0.80256 0.32131 0.55395
0.92287 0.32321 0.55304
1.00000 0.32510 0.55212
0.04216 0.44018 0.55682
0.17430 0.44047 0.55558
0.30355 0.44095 0.55455
0.43006 0.44152 0.55362
0.55394 0.44213 0.55271
0.67522 0.44275 0.55178
0.79397 0.44336 0.55082
0.91025 0.44396 0.54983
1.00000 0.44458 0.54882
0.06090 0.56078 0.55314
0.18828 0.56013 0.55222
0.31302 0.55949 0.55127
0.43518 0.55886 0.55029
0.55457 0.55826 0.54938
0.67157 0.55769 0.54845
0.78645 0.55719 0.54747
0.89916 0.55680 0.54655
1.00000 0.55654 0.54573
0.08447 0.67348 0.54763
0.20734 0.67168 0.54664
0.32774 0.66996 0.54565
0.44576 0.66836 0.54470
0.56108 0.66690 0.54401
0.66925 0.66565 0.54547
0.78109 0.66463 0.54484
0.89125 0.66389 0.54441
0.99995 0.66347 0.54419
0.10710 0.77872 0.54216
0.22584 0.77625 0.54134
0.34241 0.77404 0.54064
0.45699 0.77213 0.54011
0.56906 0.77058 0.54006
0.67467 0.76940 0.54218
0.77954 0.76864 0.54430
0.88822 0.76831 0.54470
0.99595 0.76842 0.54537
0.12906 0.87898 0.53782
0.24434 0.87666 0.53758
0.35789 0.87479 0.53758
0.46992 0.87341 0.53783
0.57967 0.87252 0.53874
0.68385 0.87215 0.54173
0.78719 0.87228 0.54498
0.88392 0.86606 0.54366
0.98122 0.85883 0.53981
0.15077 0.97769 0.53590
0.26343 0.97631 0.53654
0.37484 0.97550 0.53746
0.48448 0.97373 0.53780
0.58697 0.96446 0.53426
0.68292 0.95611 0.53277
0.77673 0.94860 0.53165
0.86864 0.94187 0.53087
0.96006 0.93586 0.52993
0.00000 0.02319 1.00000
0.16821 0.02777 0.84894
0.31544 0.03241 0.77878
0.45137 0.03710 0.74095
0.58203 0.04183 0.71822
0.70971 0.04659 0.70365
0.83534 0.05136 0.69387
0.95927 0.05614 0.68704
1.00000 0.06090 0.68210
0.00681 0.18013 0.73141
0.15356 0.17990 0.71220
0.29292 0.18108 0.69965
0.42748 0.18311 0.69111
0.55856 0.18566 0.68507
0.68682 0.18854 0.68062
0.81258 0.19161 0.67718
0.93597 0.19479 0.67436
1.00000 0.19802 0.67191
0.02538 0.31314 0.68868
0.16261 0.31376 0.68330
0.29614 0.31494 0.67927
0.42657 0.31647 0.67609
0.55420 0.31821 0.67344
0.67920 0.32006 0.67108
0.80164 0.32196 0.66887
0.92154 0.32386 0.66672
1.00000 0.32574 0.66457
0.04404 0.44025 0.67508
0.17567 0.44062 0.67255
0.30445 0.44113 0.67026
0.43053 0.44173 0.66808
0.55396 0.44234 0.66594
0.67482 0.44296 0.66379
0.79316 0.44357 0.66163
0.90905 0.44417 0.65946
1.00000 0.44479 0.65731
0.06235 0.56056 0.66730
0.18926 0.55991 0.66516
0.31353 0.55927 0.66300
0.43524 0.55865 0.66084
0.55444 0.55806 0.65867
0.67125 0.55751 0.65654
0.78578 0.55704 0.65448
0.89819 0.55669 0.65252
1.00000 0.55649 0.65072
0.08071 0.67286 0.65979
0.20320 0.67109 0.65763
0.32324 0.66940 0.65551
0.44094 0.66784 0.65347
0.55644 0.66645 0.65155
0.66914 0.66527 0.65012
0.78074 0.66435 0.64860
0.89070 0.66371 0.64734
0.99926 0.66340 0.64637
0.10345 0.77786 0.65054
0.22187 0.77547 0.64871
0.33815 0.77335 0.64706
0.45248 0.77156 0.64564
0.56505 0.77013 0.64449
0.67489 0.76910 0.64411
0.77964 0.76848 0.64556
0.88823 0.76830 0.64536
0.99591 0.76856 0.64552
0.12555 0.87814 0.64305
0.24057 0.87597 0.64202
0.35391 0.87426 0.64129
0.46577 0.87305 0.64090
0.57638 0.87234 0.64084
0.68448 0.87214 0.64171
0.78675 0.87129 0.64364
0.88161 0.86352 0.63981
0.97869 0.85655 0.63476
0.14740 0.97716 0.63875
0.25988 0.97597 0.63883
0.37115 0.97535 0.63926
0.47916 0.97047 0.63677
0.58260 0.96152 0.63143
0.68182 0.95346 0.62733
0.77539 0.94623 0.62511
0.86710 0.93975 0.62330
0.95836 0.93397 0.62141
0.00000 0.02474 1.00000
0.16333 0.02934 0.97524
0.31001 0.03400 0.90713
0.44640 0.03871 0.86834
0.57766 0.04345 0.84408
0.70584 0.04821 0.82793
0.83184 0.05299 0.81665
0.95601 0.05776 0.80841
1.00000 0.06251 0.80212
0.00867 0.17985 0.85827
0.15405 0.18018 0.83748
0.29272 0.18170 0.82338
0.42688 0.18393 0.81337
0.55768 0.18661 0.80594
0.68569 0.18957 0.80016
0.81120 0.19269 0.79544
0.93432 0.19589 0.79136
1.00000 0.19911 0.78766
0.02727 0.31327 0.81042
0.16384 0.31411 0.80368
0.29687 0.31543 0.79835
0.42686 0.31705 0.79389
0.55409 0.31883 0.78998
0.67869 0.32070 0.78638
0.80073 0.32261 0.78293
0.92022 0.32450 0.77956
1.00000 0.32637 0.77620
0.04591 0.44035 0.79242
0.17704 0.44078 0.78864
0.30537 0.44133 0.78511
0.43099 0.44194 0.78170
0.55400 0.44255 0.77834
0.67443 0.44317 0.77498
0.79236 0.44377 0.77164
0.90785 0.44438 0.76831
1.00000 0.44500 0.76504
0.06416 0.56033 0.78047
0.19062 0.55969 0.77712
0.31445 0.55906 0.77376
0.43572 0.55845 0.77042
0.55452 0.55787 0.76711
0.67095 0.55734 0.76388
0.78514 0.55691 0.76076
0.89725 0.55660 0.75780
1.00000 0.55646 0.75506
0.08182 0.67225 0.76921
0.20387 0.67050 0.76593
0.32348 0.66886 0.76272
0.44078 0.66735 0.75966
0.55592 0.66603 0.75678
0.66907 0.66493 0.75413
0.78043 0.66410 0.75176
0.89021 0.66357 0.74972
0.99863 0.66337 0.74804
0.09984 0.77702 0.75822
0.21794 0.77471 0.75540
0.33394 0.77271 0.75284
0.44802 0.77103 0.75058
0.56040 0.76974 0.74865
0.67128 0.76884 0.74710
0.77979 0.76837 0.74637
0.88829 0.76834 0.74563
0.99592 0.76875 0.74530
0.12207 0.87735 0.74770
0.23684 0.87534 0.74592
0.34998 0.87380 0.74452
0.46168 0.87275 0.74352
0.57217 0.87221 0.74293
0.68164 0.87218 0.74275
0.78476 0.86856 0.74014
0.87939 0.86106 0.73506
0.97625 0.85435 0.72887
0.14407 0.97669 0.74117
0.25637 0.97569 0.74074
0.36751 0.97527 0.74073
0.47394 0.96733 0.73478
0.57707 0.95869 0.72822
0.67777 0.95092 0.72228
0.77412 0.94394 0.71781
0.86563 0.93771 0.71504
0.95672 0.93216 0.71224
0.00000 0.02629 1.00000
0.15982 0.03091 1.00000
0.30573 0.03559 1.00000
0.44231 0.04031 0.99340
0.57394 0.04506 0.96810
0.70247 0.04983 0.95072
0.82872 0.05461 0.93817
0.95304 0.05937 0.92867
1.00000 0.06412 0.92114
0.01053 0.17979 0.98299
0.15467 0.18059 0.96106
0.29268 0.18239 0.94570
0.42644 0.18480 0.93443
0.55694 0.18759 0.92575
0.68468 0.19061 0.91873
0.80991 0.19377 0.91278
0.93273 0.19698 0.90748
1.00000 0.20021 0.90256
0.02916 0.31349 0.93102
0.16510 0.31451 0.92304
0.29764 0.31595 0.91647
0.42719 0.31764 0.91079
0.55401 0.31946 0.90565
0.67821 0.32135 0.90083
0.79983 0.32325 0.89616
0.91892 0.32514 0.89158
1.00000 0.32700 0.88702
0.04777 0.44048 0.90887
0.17842 0.44096 0.90387
0.30628 0.44153 0.89912
0.43146 0.44214 0.89449
0.55403 0.44276 0.88991
0.67404 0.44337 0.88537
0.79156 0.44398 0.88085
0.90668 0.44459 0.87639
1.00000 0.44523 0.87203
0.06597 0.56011 0.89282
0.19197 0.55948 0.88826
0.31536 0.55885 0.88372
0.43621 0.55825 0.87922
0.55460 0.55768 0.87479
0.67066 0.55718 0.87047
0.78452 0.55679 0.86633
0.89634 0.55653 0.86241
1.00000 0.55646 0.85876
0.08357 0.67165 0.87760
0.20519 0.66993 0.87320
0.32440 0.66833 0.86894
0.44134 0.66688 0.86487
0.55615 0.66563 0.86104
0.66903 0.66461 0.85752
0.78016 0.66388 0.85435
0.88976 0.66346 0.85157
0.99807 0.66338 0.84922
0.10062 0.77620 0.86345
0.21833 0.77400 0.85972
0.33397 0.77210 0.85632
0.44775 0.77055 0.85329
0.55987 0.76939 0.85066
0.67055 0.76863 0.84848
0.77999 0.76831 0.84676
0.88841 0.76843 0.84551
0.99601 0.76899 0.84474
0.11862 0.87662 0.85180
0.23315 0.87476 0.84932
0.34609 0.87339 0.84729
0.45764 0.87251 0.84572
0.56802 0.87215 0.84464
0.67742 0.87228 0.84403
0.77990 0.86592 0.83690
0.87726 0.85870 0.82946
0.97391 0.85224 0.82219
0.14075 0.97629 0.84319
0.25289 0.97549 0.84229
0.36331 0.97355 0.84035
0.46881 0.96429 0.83187
0.57164 0.95596 0.82415
0.67210 0.94846 0.81713
0.77044 0.94175 0.81078
0.86421 0.93575 0.80610
0.95514 0.93042 0.80244
0.00000 0.02786 1.00000
0.15731 0.03250 1.00000
0.30235 0.03719 1.00000
0.43893 0.04192 1.00000
0.57077 0.04668 1.00000
0.69952 0.05145 1.00000
0.82593 0.05623 1.00000
0.95031 0.06099 1.00000
1.00000 0.06572 1.00000
0.01240 0.17992 1.00000
0.15541 0.18112 1.00000
0.29279 0.18316 1.00000
0.42614 0.18572 1.00000
0.55632 0.18860 1.00000
0.68377 0.19167 1.00000
0.80870 0.19485 1.00000
0.93119 0.19808 1.00000
1.00000 0.20130 1.00000
0.03105 0.31378 1.00000
0.16639 0.31497 1.00000
0.29843 0.31650 1.00000
0.42756 0.31825 1.00000
0.55396 0.32010 1.00000
0.67774 0.32200 1.00000
0.79896 0.32389 1.00000
0.91764 0.32577 1.00000
1.00000 0.32762 0.99703
0.04963 0.44062 1.00000
0.17980 0.44115 1.00000
0.30720 0.44174 1.00000
0.43194 0.44236 1.00000
0.55407 0.44297 1.00000
0.67366 0.44358 0.99495
0.79078 0.44418 0.98928
0.90552 0.44480 0.98371
1.00000 0.44546 0.97828
0.06778 0.55990 1.00000
0.19332 0.55926 0.99859
0.31627 0.55864 0.99288
0.43670 0.55805 0.98724
0.55470 0.55750 0.98171
0.67039 0.55704 0.97635
0.78393 0.55669 0.97121
0.89548 0.55649 0.96636
1.00000 0.55648 0.96185
0.08531 0.67106 0.98521
0.20651 0.66937 0.97974
0.32533 0.66781 0.97445
0.44191 0.66643 0.96941
0.55641 0.66525 0.96467
0.66902 0.66433 0.96031
0.77993 0.66370 0.95637
0.88937 0.66340 0.95290
0.99757 0.66343 0.94994
0.10232 0.77542 0.96764
0.21967 0.77332 0.96304
0.33500 0.77153 0.95883
0.44851 0.77011 0.95505
0.56041 0.76908 0.95176
0.67091 0.76848 0.94899
0.78023 0.76830 0.94674
0.88858 0.76857 0.94504
0.99615 0.76928 0.94387
0.11910 0.87593 0.95380
0.23332 0.87424 0.95069
0.34599 0.87303 0.94811
0.45733 0.87233 0.94606
0.56754 0.87214 0.94455
0.67583 0.87114 0.94212
0.77670 0.86338 0.93214
0.87522 0.85642 0.92303
0.97166 0.85022 0.91474
0.13747 0.97595 0.94484
0.24943 0.97534 0.94351
0.35861 0.97030 0.93774
0.46376 0.96136 0.92807
0.56631 0.95332 0.91925
0.66653 0.94610 0.91122
0.76467 0.93963 0.90392
0.86092 0.93387 0.89729
0.95361 0.92876 0.89204
