film8mm.cube
TITLE "8mm home movie"
LUT_3D_SIZE 33
0.00000 0.00870 0.01807
0.17371 0.01670 0.02739
0.20308 0.01781 0.02859
0.23251 0.01892 0.02978
0.26201 0.02004 0.03098
0.29157 0.02116 0.03217
0.32118 0.02229 0.03337
0.35086 0.02343 0.03456
0.38059 0.02457 0.03576
0.41037 0.02571 0.03695
0.44020 0.02686 0.03815
0.47007 0.02801 0.03934
0.49999 0.02916 0.04053
0.52995 0.03032 0.04173
0.55995 0.03149 0.04292
0.58998 0.03265 0.04412
0.62004 0.03382 0.04531
0.65013 0.03499 0.04651
0.68024 0.03617 0.04770
0.71037 0.03735 0.04889
0.74052 0.03853 0.05008
0.77068 0.03971 0.05128
0.80084 0.04089 0.05247
0.83101 0.04208 0.05365
0.86118 0.04327 0.05484
0.89134 0.04446 0.05603
0.92150 0.04565 0.05721
0.95164 0.04684 0.05840
0.98175 0.04803 0.05958
1.00000 0.04923 0.06075
1.00000 0.05042 0.06193
1.00000 0.05161 0.06310
1.00000 0.05281 0.06427
0.00000 0.09358 0.02895
0.05311 0.08393 0.03077
0.10457 0.07831 0.03261
0.15030 0.07483 0.03380
0.19170 0.07261 0.03500
0.23033 0.07120 0.03619
0.26710 0.07034 0.03739
0.30256 0.06988 0.03858
0.33706 0.06971 0.03978
0.37085 0.06976 0.04097
0.40409 0.06999 0.04216
0.43691 0.07034 0.04336
0.46939 0.07081 0.04455
0.50159 0.07137 0.04575
0.53357 0.07201 0.04694
0.56537 0.07270 0.04813
0.59700 0.07345 0.04933
0.62851 0.07424 0.05052
0.65989 0.07508 0.05171
0.69117 0.07594 0.05290
0.72236 0.07684 0.05409
0.75346 0.07776 0.05527
0.78448 0.07870 0.05646
0.81543 0.07966 0.05764
0.84630 0.08064 0.05883
0.87711 0.08163 0.06001
0.90784 0.08264 0.06118
0.93851 0.08366 0.06236
0.96910 0.08469 0.06353
0.99962 0.08573 0.06470
1.00000 0.08677 0.06586
1.00000 0.08782 0.06703
1.00000 0.08888 0.06819
0.00000 0.12468 0.03243
0.04356 0.11978 0.03383
0.08706 0.11627 0.03601
0.12819 0.11373 0.03782
0.16848 0.11189 0.03902
0.20701 0.11057 0.04021
0.24421 0.10965 0.04140
0.28038 0.10904 0.04260
0.31573 0.10867 0.04379
0.35042 0.10851 0.04499
0.38457 0.10851 0.04618
0.41828 0.10865 0.04738
0.45162 0.10891 0.04857
0.48465 0.10926 0.04976
0.51741 0.10970 0.05095
0.54994 0.11020 0.05214
0.58226 0.11077 0.05333
0.61440 0.11139 0.05452
0.64638 0.11206 0.05571
0.67821 0.11277 0.05689
0.70991 0.11351 0.05807
0.74148 0.11429 0.05926
0.77294 0.11510 0.06043
0.80428 0.11593 0.06161
0.83552 0.11678 0.06278
0.86665 0.11765 0.06395
0.89768 0.11853 0.06512
0.92861 0.11944 0.06629
0.95944 0.12035 0.06745
0.99017 0.12128 0.06861
1.00000 0.12222 0.06976
1.00000 0.12317 0.07091
1.00000 0.12412 0.07205
0.00000 0.15600 0.03590
0.04329 0.15297 0.03718
0.08321 0.15065 0.03923
0.12132 0.14887 0.04126
0.15864 0.14752 0.04303
0.19626 0.14651 0.04423
0.23295 0.14578 0.04542
0.26888 0.14527 0.04662
0.30418 0.14496 0.04781
0.33895 0.14481 0.04900
0.37326 0.14480 0.05019
0.40719 0.14490 0.05139
0.44078 0.14510 0.05258
0.47407 0.14539 0.05376
0.50711 0.14576 0.05495
0.53992 0.14619 0.05614
0.57251 0.14668 0.05732
0.60492 0.14722 0.05850
0.63716 0.14780 0.05968
0.66923 0.14842 0.06086
0.70115 0.14908 0.06204
0.73294 0.14978 0.06321
0.76458 0.15049 0.06438
0.79610 0.15124 0.06555
0.82749 0.15200 0.06671
0.85875 0.15279 0.06787
0.88990 0.15359 0.06903
0.92093 0.15441 0.07018
0.95184 0.15524 0.07133
0.98263 0.15608 0.07247
1.00000 0.15693 0.07361
1.00000 0.15779 0.07474
1.00000 0.15866 0.07587
0.00489 0.18750 0.03937
0.04583 0.18548 0.04063
0.08367 0.18389 0.04255
0.12019 0.18264 0.04454
0.15581 0.18168 0.04651
0.19120 0.18095 0.04824
0.22728 0.18043 0.04944
0.26278 0.18007 0.05063
0.29779 0.17987 0.05182
0.33237 0.17978 0.05301
0.36658 0.17981 0.05420
0.40046 0.17994 0.05538
0.43404 0.18014 0.05657
0.46736 0.18042 0.05775
0.50044 0.18077 0.05893
0.53331 0.18117 0.06011
0.56597 0.18162 0.06129
0.59845 0.18212 0.06247
0.63075 0.18266 0.06364
0.66289 0.18323 0.06481
0.69487 0.18384 0.06597
0.72670 0.18447 0.06713
0.75839 0.18513 0.06829
0.78994 0.18581 0.06945
0.82135 0.18651 0.07060
0.85263 0.18722 0.07174
0.88378 0.18795 0.07289
0.91479 0.18870 0.07402
0.94568 0.18945 0.07516
0.97643 0.19022 0.07628
1.00000 0.19100 0.07741
1.00000 0.19178 0.07852
1.00000 0.19257 0.07963
0.01080 0.21913 0.04284
0.04970 0.21775 0.04408
0.08614 0.21664 0.04593
0.12151 0.21577 0.04789
0.15625 0.21510 0.04982
0.19045 0.21461 0.05174
0.22468 0.21426 0.05344
0.25975 0.21405 0.05463
0.29441 0.21394 0.05582
0.32873 0.21394 0.05700
0.36274 0.21402 0.05818
0.39645 0.21418 0.05936
0.42992 0.21441 0.06054
0.46314 0.21470 0.06172
0.49615 0.21504 0.06289
0.52895 0.21543 0.06406
0.56156 0.21587 0.06523
0.59399 0.21634 0.06639
0.62625 0.21684 0.06756
0.65835 0.21737 0.06871
0.69028 0.21794 0.06987
0.72207 0.21852 0.07102
0.75370 0.21913 0.07216
0.78519 0.21975 0.07330
0.81654 0.22039 0.07444
0.84774 0.22104 0.07557
0.87881 0.22171 0.07669
0.90973 0.22239 0.07781
0.94052 0.22308 0.07893
0.97116 0.22377 0.08004
1.00000 0.22447 0.08114
1.00000 0.22518 0.08224
1.00000 0.22589 0.08333
0.01675 0.25086 0.04629
0.05427 0.24990 0.04753
0.08970 0.24914 0.04933
0.12423 0.24854 0.05126
0.15827 0.24810 0.05317
0.19190 0.24778 0.05507
0.22514 0.24758 0.05696
0.25861 0.24747 0.05861
0.29294 0.24746 0.05979
0.32697 0.24752 0.06097
0.36073 0.24766 0.06215
0.39424 0.24785 0.06332
0.42752 0.24810 0.06449
0.46058 0.24840 0.06565
0.49344 0.24874 0.06682
0.52612 0.24912 0.06798
0.55860 0.24953 0.06913
0.59092 0.24998 0.07028
0.62306 0.25045 0.07143
0.65505 0.25095 0.07258
0.68687 0.25147 0.07371
0.71854 0.25200 0.07485
0.75006 0.25256 0.07598
0.78143 0.25313 0.07710
0.81265 0.25371 0.07822
0.84372 0.25431 0.07933
0.87464 0.25491 0.08044
0.90542 0.25552 0.08154
0.93605 0.25614 0.08264
0.96654 0.25676 0.08373
0.99688 0.25739 0.08481
1.00000 0.25802 0.08589
1.00000 0.25866 0.08696
0.02275 0.28264 0.04974
0.05927 0.28198 0.05096
0.09393 0.28146 0.05273
0.12778 0.28107 0.05463
0.16127 0.28079 0.05653
0.19441 0.28061 0.05841
0.22725 0.28051 0.06028
0.25980 0.28049 0.06214
0.29271 0.28054 0.06374
0.32645 0.28066 0.06491
0.35995 0.28083 0.06608
0.39322 0.28104 0.06724
0.42629 0.28130 0.06840
0.45916 0.28160 0.06955
0.49184 0.28193 0.07070
0.52434 0.28230 0.07185
0.55666 0.28269 0.07299
0.58881 0.28311 0.07413
0.62079 0.28355 0.07526
0.65262 0.28400 0.07639
0.68428 0.28448 0.07751
0.71579 0.28496 0.07863
0.74714 0.28547 0.07974
0.77834 0.28598 0.08084
0.80939 0.28650 0.08194
0.84028 0.28703 0.08303
0.87102 0.28757 0.08412
0.90162 0.28811 0.08520
0.93206 0.28866 0.08628
0.96235 0.28921 0.08734
0.99249 0.28976 0.08840
1.00000 0.29031 0.08946
1.00000 0.29087 0.09050
0.02878 0.31441 0.05317
0.06453 0.31396 0.05438
0.09857 0.31362 0.05612
0.13189 0.31338 0.05801
0.16490 0.31322 0.05988
0.19763 0.31313 0.06174
0.23009 0.31312 0.06359
0.26232 0.31316 0.06543
0.29432 0.31325 0.06726
0.32677 0.31340 0.06882
0.36001 0.31358 0.06997
0.39304 0.31381 0.07112
0.42588 0.31407 0.07227
0.45853 0.31436 0.07341
0.49099 0.31467 0.07454
0.52329 0.31501 0.07567
0.55541 0.31537 0.07680
0.58736 0.31575 0.07792
0.61915 0.31615 0.07903
0.65078 0.31656 0.08014
0.68225 0.31698 0.08124
0.71356 0.31741 0.08234
0.74472 0.31786 0.08343
0.77572 0.31831 0.08452
0.80656 0.31876 0.08559
0.83725 0.31923 0.08666
0.86778 0.31969 0.08773
0.89816 0.32016 0.08879
0.92839 0.32063 0.08984
0.95846 0.32111 0.09088
0.98838 0.32158 0.09192
1.00000 0.32206 0.09295
1.00000 0.32253 0.09397
0.03482 0.34613 0.05658
0.06997 0.34583 0.05778
0.10349 0.34562 0.05950
0.13635 0.34547 0.06136
0.16895 0.34539 0.06321
0.20131 0.34537 0.06505
0.23344 0.34540 0.06688
0.26536 0.34548 0.06870
0.29707 0.34560 0.07052
0.32859 0.34576 0.07232
0.36065 0.34594 0.07382
0.39343 0.34616 0.07495
0.42602 0.34641 0.07608
0.45844 0.34667 0.07720
0.49068 0.34696 0.07832
0.52274 0.34726 0.07944
0.55464 0.34758 0.08054
0.58638 0.34792 0.08164
0.61795 0.34826 0.08274
0.64936 0.34862 0.08383
0.68061 0.34898 0.08491
0.71170 0.34936 0.08598
0.74263 0.34973 0.08705
0.77341 0.35012 0.08812
0.80402 0.35050 0.08917
0.83448 0.35089 0.09022
0.86479 0.35128 0.09126
0.89493 0.35168 0.09230
0.92493 0.35207 0.09332
0.95476 0.35247 0.09434
0.98444 0.35286 0.09536
1.00000 0.35325 0.09636
1.00000 0.35365 0.09736
0.04087 0.37773 0.05995
0.07551 0.37754 0.06114
0.10859 0.37740 0.06285
0.14105 0.37733 0.06468
0.17329 0.37730 0.06651
0.20531 0.37731 0.06833
0.23713 0.37737 0.07014
0.26875 0.37746 0.07194
0.30018 0.37758 0.07373
0.33143 0.37773 0.07552
0.36251 0.37790 0.07729
0.39421 0.37810 0.07873
0.42655 0.37831 0.07984
0.45872 0.37854 0.08094
0.49072 0.37879 0.08204
0.52255 0.37905 0.08313
0.55421 0.37932 0.08422
0.58570 0.37960 0.08530
0.61704 0.37989 0.08637
0.64821 0.38018 0.08744
0.67922 0.38048 0.08850
0.71008 0.38078 0.08955
0.74077 0.38109 0.09060
0.77130 0.38140 0.09164
0.80168 0.38171 0.09267
0.83190 0.38203 0.09370
0.86195 0.38234 0.09471
0.89186 0.38265 0.09572
0.92160 0.38297 0.09673
0.95119 0.38328 0.09772
0.98062 0.38359 0.09871
1.00000 0.38391 0.09969
1.00000 0.38422 0.10066
0.04692 0.40916 0.06330
0.08113 0.40903 0.06447
0.11380 0.40895 0.06616
0.14591 0.40890 0.06797
0.17782 0.40890 0.06978
0.20952 0.40892 0.07158
0.24104 0.40898 0.07336
0.27238 0.40906 0.07514
0.30353 0.40917 0.07691
0.33452 0.40929 0.07867
0.36533 0.40944 0.08042
0.39598 0.40960 0.08215
0.42735 0.40977 0.08353
0.45926 0.40996 0.08461
0.49100 0.41015 0.08569
0.52258 0.41035 0.08676
0.55399 0.41057 0.08783
0.58523 0.41078 0.08889
0.61632 0.41100 0.08994
0.64724 0.41123 0.09098
0.67801 0.41146 0.09202
0.70861 0.41169 0.09305
0.73905 0.41192 0.09407
0.76933 0.41216 0.09508
0.79946 0.41239 0.09609
0.82942 0.41262 0.09709
0.85923 0.41286 0.09808
0.88888 0.41309 0.09907
0.91837 0.41332 0.10005
0.94771 0.41356 0.10102
0.97689 0.41379 0.10198
1.00000 0.41402 0.10294
1.00000 0.41425 0.10389
0.05296 0.44036 0.06660
0.08678 0.44026 0.06775
0.11908 0.44019 0.06942
0.15087 0.44016 0.07122
0.18246 0.44015 0.07300
0.21387 0.44017 0.07477
0.24510 0.44021 0.07654
0.27615 0.44027 0.07829
0.30704 0.44034 0.08003
0.33775 0.44043 0.08176
0.36831 0.44053 0.08349
0.39870 0.44064 0.08520
0.42893 0.44076 0.08690
0.45996 0.44089 0.08821
0.49144 0.44102 0.08927
0.52275 0.44116 0.09032
0.55391 0.44131 0.09136
0.58490 0.44146 0.09239
0.61572 0.44161 0.09342
0.64639 0.44176 0.09444
0.67689 0.44191 0.09545
0.70724 0.44207 0.09645
0.73742 0.44222 0.09745
0.76745 0.44238 0.09844
0.79731 0.44253 0.09943
0.82702 0.44268 0.10040
0.85657 0.44284 0.10137
0.88597 0.44299 0.10233
0.91521 0.44314 0.10328
0.94430 0.44330 0.10423
0.97323 0.44345 0.10517
1.00000 0.44360 0.10610
1.00000 0.44375 0.10703
0.05898 0.47127 0.06984
0.09244 0.47118 0.07098
0.12440 0.47111 0.07264
0.15587 0.47106 0.07441
0.18716 0.47103 0.07617
0.21828 0.47102 0.07791
0.24923 0.47102 0.07965
0.28001 0.47104 0.08138
0.31063 0.47107 0.08310
0.34108 0.47111 0.08480
0.37137 0.47115 0.08650
0.40150 0.47121 0.08818
0.43147 0.47126 0.08986
0.46128 0.47133 0.09152
0.49197 0.47139 0.09277
0.52302 0.47146 0.09379
0.55391 0.47154 0.09481
0.58464 0.47161 0.09582
0.61520 0.47169 0.09682
0.64560 0.47176 0.09781
0.67585 0.47184 0.09880
0.70593 0.47191 0.09978
0.73585 0.47199 0.10075
0.76562 0.47206 0.10172
0.79523 0.47214 0.10268
0.82468 0.47221 0.10363
0.85398 0.47229 0.10457
0.88313 0.47236 0.10551
0.91212 0.47244 0.10644
0.94096 0.47251 0.10736
0.96965 0.47259 0.10828
0.99819 0.47266 0.10919
1.00000 0.47274 0.11009
0.06497 0.50184 0.07304
0.09810 0.50173 0.07416
0.12972 0.50163 0.07580
0.16090 0.50156 0.07754
0.19190 0.50149 0.07927
0.22274 0.50144 0.08099
0.25341 0.50139 0.08270
0.28391 0.50136 0.08440
0.31426 0.50133 0.08609
0.34444 0.50131 0.08777
0.37447 0.50129 0.08944
0.40433 0.50127 0.09110
0.43404 0.50126 0.09275
0.46360 0.50126 0.09438
0.49299 0.50125 0.09601
0.52334 0.50125 0.09718
0.55396 0.50124 0.09817
0.58442 0.50124 0.09916
0.61472 0.50124 0.10014
0.64486 0.50123 0.10111
0.67484 0.50123 0.10207
0.70467 0.50123 0.10302
0.73433 0.50123 0.10397
0.76384 0.50122 0.10491
0.79320 0.50122 0.10585
0.82240 0.50122 0.10678
0.85145 0.50122 0.10770
0.88035 0.50122 0.10861
0.90910 0.50122 0.10952
0.93771 0.50122 0.11042
0.96616 0.50123 0.11131
0.99448 0.50124 0.11220
1.00000 0.50125 0.11308
0.07092 0.53203 0.07617
0.10373 0.53188 0.07727
0.13503 0.53174 0.07890
0.16591 0.53162 0.08061
0.19663 0.53150 0.08232
0.22719 0.53139 0.08401
0.25759 0.53129 0.08569
0.28782 0.53119 0.08736
0.31790 0.53110 0.08902
0.34781 0.53101 0.09067
0.37757 0.53092 0.09231
0.40717 0.53083 0.09394
0.43662 0.53075 0.09556
0.46591 0.53067 0.09717
0.49505 0.53059 0.09877
0.52403 0.53050 0.10035
0.55405 0.53042 0.10146
0.58424 0.53034 0.10242
0.61428 0.53026 0.10337
0.64416 0.53018 0.10432
0.67388 0.53010 0.10526
0.70344 0.53003 0.10619
0.73286 0.52995 0.10711
0.76211 0.52987 0.10803
0.79122 0.52980 0.10894
0.82018 0.52972 0.10985
0.84899 0.52965 0.11075
0.87766 0.52958 0.11164
0.90618 0.52952 0.11252
0.93456 0.52946 0.11340
0.96280 0.52940 0.11428
0.99090 0.52934 0.11515
1.00000 0.52929 0.11601
0.07682 0.56178 0.07923
0.10933 0.56158 0.08031
0.14030 0.56139 0.08193
0.17091 0.56121 0.08361
0.20135 0.56103 0.08529
0.23163 0.56086 0.08695
0.26175 0.56069 0.08861
0.29171 0.56052 0.09025
0.32152 0.56036 0.09188
0.35117 0.56020 0.09350
0.38066 0.56003 0.09512
0.41000 0.55987 0.09672
0.43919 0.55971 0.09831
0.46822 0.55956 0.09989
0.49710 0.55940 0.10145
0.52582 0.55924 0.10301
0.55440 0.55909 0.10456
0.58408 0.55893 0.10560
0.61386 0.55878 0.10653
0.64348 0.55862 0.10745
0.67295 0.55847 0.10836
0.70227 0.55832 0.10927
0.73143 0.55817 0.11017
0.76045 0.55803 0.11107
0.78932 0.55789 0.11196
0.81804 0.55775 0.11284
0.84663 0.55762 0.11372
0.87507 0.55749 0.11460
0.90337 0.55736 0.11546
0.93154 0.55724 0.11632
0.95957 0.55713 0.11718
0.98748 0.55702 0.11803
1.00000 0.55692 0.11888
0.08267 0.59107 0.08223
0.11489 0.59082 0.08328
0.14554 0.59056 0.08489
0.17586 0.59031 0.08654
0.20603 0.59007 0.08819
0.23604 0.58983 0.08983
0.26589 0.58958 0.09145
0.29558 0.58934 0.09306
0.32512 0.58911 0.09467
0.35450 0.58887 0.09626
0.38373 0.58863 0.09784
0.41281 0.58840 0.09942
0.44173 0.58816 0.10098
0.47051 0.58793 0.10253
0.49913 0.58770 0.10407
0.52760 0.58747 0.10560
0.55593 0.58724 0.10712
0.58411 0.58701 0.10863
0.61348 0.58679 0.10960
0.64285 0.58657 0.11050
0.67207 0.58635 0.11140
0.70115 0.58614 0.11228
0.73008 0.58593 0.11317
0.75886 0.58572 0.11404
0.78751 0.58552 0.11491
0.81601 0.58533 0.11578
0.84438 0.58514 0.11664
0.87261 0.58496 0.11749
0.90071 0.58478 0.11834
0.92869 0.58462 0.11919
0.95653 0.58446 0.12003
0.98425 0.58431 0.12086
1.00000 0.58417 0.12170
0.08847 0.61988 0.08515
0.12039 0.61956 0.08618
0.15072 0.61923 0.08777
0.18077 0.61891 0.08940
0.21066 0.61860 0.09102
0.24040 0.61828 0.09262
0.26998 0.61797 0.09422
0.29941 0.61765 0.09581
0.32868 0.61734 0.09738
0.35780 0.61703 0.09895
0.38677 0.61672 0.10050
0.41559 0.61641 0.10205
0.44426 0.61611 0.10358
0.47278 0.61580 0.10510
0.50115 0.61550 0.10662
0.52938 0.61521 0.10812
0.55746 0.61491 0.10962
0.58540 0.61462 0.11110
0.61320 0.61433 0.11258
0.64228 0.61405 0.11348
0.67126 0.61378 0.11436
0.70011 0.61350 0.11523
0.72881 0.61324 0.11609
0.75738 0.61298 0.11695
0.78581 0.61273 0.11780
0.81411 0.61249 0.11865
0.84228 0.61226 0.11949
0.87032 0.61204 0.12033
0.89823 0.61183 0.12117
0.92603 0.61163 0.12200
0.95370 0.61144 0.12283
0.98126 0.61126 0.12365
1.00000 0.61109 0.12447
0.09421 0.64819 0.08800
0.12584 0.64779 0.08900
0.15585 0.64740 0.09058
0.18563 0.64701 0.09218
0.21525 0.64662 0.09377
0.24472 0.64623 0.09535
0.27404 0.64584 0.09692
0.30320 0.64546 0.09848
0.33221 0.64507 0.10002
0.36108 0.64469 0.10156
0.38979 0.64431 0.10309
0.41836 0.64394 0.10461
0.44677 0.64357 0.10611
0.47505 0.64320 0.10761
0.50318 0.64284 0.10910
0.53117 0.64248 0.11058
0.55902 0.64212 0.11205
0.58673 0.64178 0.11352
0.61430 0.64144 0.11497
0.64178 0.64110 0.11640
0.67054 0.64078 0.11726
0.69917 0.64046 0.11811
0.72766 0.64015 0.11896
0.75603 0.63986 0.11980
0.78426 0.63957 0.12064
0.81237 0.63929 0.12147
0.84035 0.63903 0.12230
0.86822 0.63878 0.12313
0.89596 0.63854 0.12395
0.92360 0.63831 0.12477
0.95112 0.63810 0.12559
0.97854 0.63791 0.12640
1.00000 0.63772 0.12721
0.09989 0.67599 0.09077
0.13123 0.67552 0.09175
0.16092 0.67506 0.09332
0.19044 0.67460 0.09489
0.21979 0.67413 0.09646
0.24900 0.67368 0.09801
0.27805 0.67322 0.09955
0.30696 0.67277 0.10108
0.33572 0.67232 0.10260
0.36433 0.67187 0.10411
0.39279 0.67143 0.10561
0.42111 0.67100 0.10710
0.44929 0.67057 0.10859
0.47732 0.67014 0.11006
0.50522 0.66973 0.11153
0.53298 0.66932 0.11299
0.56061 0.66892 0.11443
0.58810 0.66852 0.11588
0.61546 0.66814 0.11731
0.64270 0.66777 0.11874
0.66993 0.66740 0.12010
0.69836 0.66705 0.12094
0.72666 0.66671 0.12177
0.75483 0.66638 0.12260
0.78288 0.66607 0.12343
0.81082 0.66577 0.12425
0.83863 0.66549 0.12507
0.86634 0.66522 0.12588
0.89394 0.66497 0.12670
0.92143 0.66473 0.12751
0.94882 0.66451 0.12832
0.97612 0.66431 0.12913
1.00000 0.66412 0.12993
0.10550 0.70329 0.09347
0.13655 0.70276 0.09444
0.16594 0.70222 0.09599
0.19519 0.70169 0.09754
0.22429 0.70117 0.09907
0.25324 0.70065 0.10059
0.28204 0.70013 0.10211
0.31069 0.69961 0.10361
0.33920 0.69911 0.10511
0.36756 0.69861 0.10660
0.39578 0.69811 0.10807
0.42387 0.69763 0.10954
0.45181 0.69715 0.11100
0.47962 0.69668 0.11246
0.50730 0.69622 0.11390
0.53484 0.69577 0.11534
0.56226 0.69533 0.11677
0.58954 0.69490 0.11819
0.61671 0.69449 0.11961
0.64375 0.69408 0.12101
0.67067 0.69369 0.12242
0.69770 0.69332 0.12373
0.72582 0.69296 0.12455
0.75382 0.69262 0.12536
0.78171 0.69229 0.12618
0.80948 0.69198 0.12699
0.83715 0.69169 0.12780
0.86472 0.69142 0.12861
0.89219 0.69116 0.12942
0.91955 0.69093 0.13022
0.94683 0.69071 0.13103
0.97402 0.69051 0.13183
1.00000 0.69034 0.13264
0.11106 0.73011 0.09610
0.14178 0.72951 0.09707
0.17091 0.72892 0.09859
0.19990 0.72833 0.10011
0.22874 0.72774 0.10162
0.25744 0.72716 0.10312
0.28599 0.72659 0.10461
0.31440 0.72603 0.10609
0.34266 0.72547 0.10756
0.37079 0.72493 0.10903
0.39878 0.72439 0.11048
0.42664 0.72386 0.11193
0.45437 0.72335 0.11337
0.48196 0.72284 0.11480
0.50942 0.72235 0.11623
0.53676 0.72187 0.11765
0.56398 0.72141 0.11906
0.59108 0.72096 0.12047
0.61806 0.72052 0.12187
0.64492 0.72011 0.12326
0.67168 0.71971 0.12465
0.69832 0.71932 0.12603
0.72517 0.71896 0.12729
0.75301 0.71861 0.12810
0.78076 0.71828 0.12891
0.80839 0.71797 0.12971
0.83593 0.71769 0.13052
0.86338 0.71742 0.13132
0.89073 0.71718 0.13213
0.91799 0.71695 0.13293
0.94517 0.71675 0.13373
0.97227 0.71658 0.13453
0.99929 0.71642 0.13533
0.11656 0.75647 0.09866
0.14695 0.75582 0.09963
0.17583 0.75517 0.10113
0.20457 0.75453 0.10262
0.23316 0.75389 0.10411
0.26162 0.75327 0.10558
0.28993 0.75265 0.10705
0.31810 0.75205 0.10851
0.34614 0.75146 0.10996
0.37404 0.75088 0.11141
0.40181 0.75031 0.11284
0.42945 0.74975 0.11427
0.45697 0.74921 0.11570
0.48436 0.74869 0.11711
0.51163 0.74818 0.11852
0.53878 0.74768 0.11993
0.56581 0.74721 0.12132
0.59273 0.74675 0.12272
0.61954 0.74631 0.12410
0.64624 0.74589 0.12549
0.67284 0.74549 0.12686
0.69934 0.74511 0.12824
0.72574 0.74475 0.12961
0.75245 0.74441 0.13081
0.78005 0.74409 0.13161
0.80757 0.74380 0.13242
0.83500 0.74353 0.13322
0.86233 0.74328 0.13402
0.88959 0.74306 0.13482
0.91676 0.74286 0.13563
0.94386 0.74269 0.13643
0.97089 0.74254 0.13723
0.99784 0.74242 0.13803
0.12201 0.78241 0.10116
0.15208 0.78171 0.10213
0.18072 0.78101 0.10361
0.20921 0.78033 0.10508
0.23756 0.77966 0.10654
0.26578 0.77900 0.10800
0.29386 0.77836 0.10945
0.32180 0.77772 0.11089
0.34962 0.77711 0.11232
0.37731 0.77650 0.11375
0.40487 0.77592 0.11517
0.43231 0.77535 0.11658
0.45963 0.77480 0.11799
0.48683 0.77426 0.11939
0.51392 0.77375 0.12078
0.54089 0.77325 0.12218
0.56776 0.77278 0.12356
0.59452 0.77232 0.12494
0.62117 0.77189 0.12632
0.64773 0.77148 0.12769
0.67419 0.77109 0.12906
0.70056 0.77073 0.13043
0.72684 0.77039 0.13179
0.75303 0.77007 0.13315
0.77962 0.76978 0.13431
0.80703 0.76951 0.13512
0.83436 0.76927 0.13592
0.86161 0.76906 0.13672
0.88879 0.76887 0.13752
0.91589 0.76871 0.13833
0.94292 0.76857 0.13913
0.96989 0.76846 0.13994
0.99680 0.76838 0.14075
0.12741 0.80796 0.10361
0.15717 0.80722 0.10458
0.18557 0.80650 0.10604
0.21382 0.80579 0.10749
0.24195 0.80509 0.10893
0.26994 0.80441 0.11037
0.29780 0.80375 0.11180
0.32553 0.80310 0.11322
0.35314 0.80248 0.11464
0.38062 0.80187 0.11605
0.40799 0.80127 0.11746
0.43524 0.80070 0.11886
0.46238 0.80015 0.12025
0.48941 0.79962 0.12164
0.51632 0.79912 0.12303
0.54314 0.79863 0.12441
0.56985 0.79817 0.12579
0.59646 0.79774 0.12716
0.62298 0.79732 0.12853
0.64941 0.79694 0.12990
0.67575 0.79657 0.13126
0.70200 0.79624 0.13262
0.72817 0.79593 0.13398
0.75426 0.79564 0.13534
0.78027 0.79539 0.13669
0.80680 0.79516 0.13782
0.83405 0.79496 0.13862
0.86122 0.79479 0.13943
0.88833 0.79464 0.14023
0.91537 0.79452 0.14104
0.94236 0.79444 0.14185
0.96928 0.79438 0.14266
0.99615 0.79435 0.14347
0.13278 0.83317 0.10600
0.16223 0.83242 0.10698
0.19039 0.83168 0.10842
0.21842 0.83095 0.10986
0.24633 0.83024 0.11128
0.27410 0.82956 0.11271
0.30176 0.82889 0.11412
0.32929 0.82824 0.11553
0.35670 0.82762 0.11693
0.38400 0.82701 0.11833
0.41118 0.82643 0.11972
0.43826 0.82587 0.12111
0.46523 0.82534 0.12250
0.49209 0.82483 0.12388
0.51886 0.82434 0.12526
0.54553 0.82388 0.12663
0.57210 0.82345 0.12800
0.59859 0.82304 0.12937
0.62498 0.82266 0.13074
0.65129 0.82231 0.13210
0.67752 0.82198 0.13346
0.70368 0.82169 0.13482
0.72975 0.82142 0.13618
0.75576 0.82118 0.13754
0.78170 0.82097 0.13889
0.80757 0.82079 0.14025
0.83405 0.82064 0.14133
0.86117 0.82052 0.14215
0.88822 0.82043 0.14296
0.91522 0.82036 0.14377
0.94217 0.82033 0.14459
0.96906 0.82033 0.14541
0.99591 0.82035 0.14623
0.13811 0.85811 0.10835
0.16726 0.85734 0.10935
0.19520 0.85660 0.11077
0.22302 0.85587 0.11219
0.25072 0.85517 0.11360
0.27829 0.85449 0.11501
0.30575 0.85383 0.11641
0.33309 0.85319 0.11781
0.36032 0.85259 0.11920
