jibun-no-iro.cube
TITLE "smith custom look"
LUT_3D_SIZE 33
0.00000 0.04314 0.01176
0.00000 0.04694 0.01556
0.00000 0.04681 0.01544
0.01887 0.04706 0.01569
0.04853 0.04314 0.01569
0.08321 0.04645 0.01900
0.12574 0.03995 0.01642
0.17132 0.04007 0.01961
0.21373 0.02843 0.01961
0.26287 0.02071 0.02243
0.31029 0.00637 0.02353
0.36826 0.00000 0.02610
0.43529 0.00000 0.03137
0.50098 0.00000 0.03762
0.56275 0.00000 0.04926
0.62635 0.00000 0.05699
0.68431 0.00000 0.06863
0.74620 0.03983 0.08211
0.79069 0.10221 0.09583
0.82990 0.15074 0.10907
0.86471 0.19853 0.12598
0.89032 0.24203 0.14387
0.91618 0.28848 0.16446
0.93554 0.33100 0.18762
0.95098 0.37059 0.21176
0.97034 0.41605 0.24351
0.98113 0.45858 0.27819
0.99277 0.50172 0.32071
1.00000 0.54363 0.35931
1.00000 0.58223 0.39828
1.00000 0.61691 0.44069
1.00000 0.65221 0.48750
1.00000 0.81961 0.67059
0.58015 0.00000 0.00000
0.00000 0.05086 0.01925
0.00724 0.05442 0.01925
0.02623 0.05467 0.01950
0.05627 0.05478 0.01961
0.09426 0.05800 0.02294
0.13666 0.05542 0.02343
0.18284 0.05539 0.02721
0.22534 0.04776 0.02350
0.27442 0.04007 0.02635
0.32332 0.02835 0.03002
0.38762 0.01409 0.03387
0.44836 0.00142 0.03909
0.50870 0.00000 0.04919
0.57260 0.00000 0.05699
0.63615 0.01769 0.06863
0.69589 0.06336 0.08021
0.75600 0.11385 0.09375
0.80061 0.15679 0.10741
0.83537 0.19939 0.12225
0.86850 0.23954 0.14138
0.89420 0.28076 0.15931
0.91732 0.32700 0.18374
0.93554 0.36569 0.20797
0.95196 0.40444 0.23496
0.96948 0.44694 0.26973
0.98123 0.48566 0.30525
0.98956 0.53270 0.34839
0.99620 0.57082 0.38650
1.00000 0.60538 0.42880
1.00000 0.64007 0.46777
0.99632 0.67144 0.51066
1.00000 0.83125 0.69375
0.55858 0.00000 0.00760
0.00000 0.06214 0.02317
0.01080 0.06593 0.02305
0.03395 0.06985 0.02721
0.06768 0.07010 0.02675
0.10571 0.07402 0.03055
0.14833 0.07387 0.02814
0.19149 0.07377 0.03113
0.23327 0.06710 0.03131
0.28230 0.06311 0.03505
0.33644 0.05515 0.03775
0.39690 0.04968 0.04547
0.45245 0.04161 0.04926
0.50674 0.04360 0.05699
0.57290 0.05735 0.06677
0.63457 0.08310 0.07855
0.69252 0.11814 0.08995
0.75270 0.15723 0.10539
0.79706 0.19216 0.11691
0.83039 0.22708 0.13250
0.86118 0.26707 0.15309
0.88680 0.30453 0.17132
0.91356 0.34689 0.19567
0.93186 0.38438 0.21985
0.94737 0.42151 0.24712
0.96288 0.46306 0.28186
0.97373 0.50098 0.31667
0.98517 0.54424 0.35686
0.98918 0.57868 0.39507
0.99275 0.60990 0.43380
0.99632 0.64436 0.47230
0.99264 0.67585 0.51519
1.00000 0.83162 0.69436
0.54228 0.00000 0.01924
0.00000 0.08102 0.03065
0.00402 0.08493 0.03042
0.02705 0.08876 0.03101
0.06774 0.08946 0.03088
0.10624 0.09283 0.03474
0.14571 0.09308 0.03500
0.18787 0.09302 0.04162
0.22702 0.08946 0.04179
0.27537 0.09175 0.04559
0.32930 0.08628 0.04694
0.38346 0.08493 0.05331
0.43528 0.08444 0.05832
0.48777 0.08655 0.06471
0.54816 0.09669 0.07243
0.60821 0.11662 0.08426
0.66599 0.14381 0.09553
0.72623 0.17524 0.10939
0.77083 0.20457 0.12092
0.80784 0.23527 0.13282
0.84214 0.26973 0.15196
0.86789 0.30380 0.16899
0.89461 0.34338 0.19203
0.91640 0.37833 0.21518
0.93309 0.41320 0.23968
0.95139 0.45478 0.27439
0.96225 0.48995 0.30557
0.97445 0.52929 0.34498
0.98157 0.56429 0.37998
0.98894 0.59862 0.41826
0.99218 0.63274 0.45689
0.98896 0.66456 0.49999
1.00000 0.82390 0.67917
0.06716 0.08922 0.03431
0.00000 0.10378 0.03471
0.00000 0.10438 0.03159
0.02816 0.10833 0.03142
0.07102 0.11225 0.03529
0.11311 0.11564 0.03868
0.15907 0.11299 0.03922
0.20110 0.11225 0.04303
0.24510 0.11520 0.04951
0.29619 0.11618 0.05133
0.35172 0.11945 0.06054
0.40887 0.12272 0.06569
0.46458 0.12812 0.07390
0.52287 0.13537 0.08088
0.58434 0.15025 0.09044
0.63909 0.16971 0.10047
0.69338 0.19069 0.11176
0.74864 0.21996 0.12194
0.78949 0.24510 0.13480
0.82549 0.27235 0.14801
0.85509 0.30294 0.16520
0.88055 0.33549 0.18231
0.90472 0.36878 0.20374
0.92440 0.40357 0.22782
0.94032 0.43493 0.25453
0.95651 0.47085 0.28349
0.97059 0.50833 0.31706
0.98297 0.55008 0.35936
0.98725 0.58529 0.39749
0.99150 0.61650 0.43251
0.99513 0.64706 0.47377
0.99570 0.68157 0.51564
0.99951 0.81520 0.66765
0.73689 0.08603 0.06752
0.00000 0.13776 0.04990
0.00000 0.13873 0.04277
0.01600 0.13928 0.04252
0.06495 0.14265 0.04199
0.11747 0.14884 0.04201
0.18013 0.15245 0.04633
0.23076 0.15577 0.05282
0.28058 0.15711 0.06069
0.33211 0.16010 0.06588
0.38505 0.16703 0.07826
0.44126 0.17435 0.08661
0.50158 0.18676 0.09718
0.56262 0.20110 0.10637
0.62057 0.22030 0.11775
0.67488 0.23963 0.12721
0.72531 0.26115 0.13873
0.77774 0.28803 0.15233
0.81314 0.31115 0.16507
0.84277 0.33455 0.17855
0.86985 0.36383 0.19619
0.89363 0.39305 0.21707
0.91514 0.42250 0.23983
0.93493 0.45502 0.26691
0.94969 0.48606 0.29452
0.96116 0.52085 0.32610
0.97255 0.55221 0.36397
0.98431 0.59443 0.40671
0.98542 0.62593 0.44203
0.98916 0.65392 0.47721
0.99216 0.68398 0.51503
0.98920 0.70872 0.55137
1.00000 0.85037 0.71250
0.75417 0.22010 0.11471
0.00000 0.17279 0.06167
0.00000 0.17672 0.05829
0.00777 0.18027 0.05809
0.06241 0.18447 0.05735
0.11997 0.19448 0.05686
0.19251 0.20329 0.05994
0.25384 0.20984 0.06826
0.31489 0.21703 0.07855
0.36654 0.21891 0.08762
0.42574 0.22819 0.09853
0.48383 0.24240 0.11226
0.54289 0.26029 0.12626
0.60014 0.27721 0.13738
0.65458 0.29445 0.14870
0.70650 0.31409 0.16162
0.75221 0.33603 0.17194
0.79728 0.35782 0.18564
0.82786 0.37647 0.19870
0.85576 0.39455 0.21404
0.88091 0.41988 0.23529
0.90231 0.44534 0.25330
0.92010 0.47132 0.27817
0.93836 0.50004 0.30396
0.95116 0.52978 0.33131
0.96250 0.55809 0.36217
0.97269 0.58957 0.39755
0.98369 0.62720 0.43958
0.98505 0.65172 0.47181
0.98860 0.67910 0.50306
0.98823 0.70196 0.53750
0.98860 0.72623 0.56951
1.00000 0.85882 0.72230
0.74375 0.28113 0.14645
0.00000 0.20456 0.07711
0.00000 0.20833 0.07672
0.00078 0.21197 0.07672
0.04916 0.21618 0.07328
0.10417 0.22354 0.07279
0.17227 0.23489 0.07279
0.24191 0.24908 0.07653
0.30990 0.25977 0.08695
0.37243 0.26888 0.09914
0.43370 0.27809 0.11348
0.48966 0.28762 0.12530
0.54596 0.30225 0.13929
0.59930 0.31852 0.15282
0.64987 0.33786 0.16568
0.69963 0.35490 0.17847
0.74485 0.37304 0.18891
0.78946 0.39240 0.20261
0.81949 0.40784 0.21482
0.84571 0.42181 0.22892
0.87194 0.44383 0.24828
0.89174 0.46613 0.26593
0.91311 0.49034 0.28883
0.92917 0.51532 0.31532
0.94399 0.54262 0.34032
0.95551 0.56967 0.36814
0.96614 0.59743 0.40151
0.97708 0.63249 0.44094
0.98125 0.65637 0.46949
0.98546 0.67982 0.50065
0.98804 0.70557 0.53431
0.98554 0.72922 0.56939
1.00000 0.85882 0.71850
0.18431 0.28333 0.12157
0.00000 0.26455 0.10392
0.00000 0.26569 0.10116
0.00000 0.26933 0.10392
0.03211 0.27341 0.10392
0.09577 0.28076 0.10015
0.16875 0.29326 0.10239
0.23542 0.30907 0.10230
0.31618 0.32770 0.10858
0.39188 0.33949 0.12019
0.45790 0.35080 0.13382
0.51443 0.35843 0.14534
0.56691 0.36875 0.16078
0.61575 0.37840 0.17230
0.66348 0.39136 0.18480
0.70604 0.40653 0.19874
0.75147 0.42402 0.21373
0.79323 0.44151 0.22871
0.82255 0.45539 0.24320
0.84792 0.46691 0.25809
0.87108 0.48566 0.27353
0.89093 0.50561 0.29354
0.91029 0.52396 0.31348
0.92644 0.54632 0.33664
0.94069 0.56985 0.36299
0.95346 0.59439 0.39069
0.96134 0.62083 0.42138
0.97482 0.65395 0.46143
0.98039 0.67892 0.49314
0.98165 0.70208 0.52402
0.98431 0.72114 0.55098
0.98263 0.73888 0.57917
0.99902 0.83529 0.69216
0.87623 0.48591 0.26287
0.00000 0.34905 0.14539
0.00000 0.36733 0.15049
0.00000 0.37098 0.15025
0.04599 0.37011 0.14928
0.11353 0.37218 0.14650
0.18652 0.37966 0.14580
0.25062 0.38897 0.14106
0.32635 0.40380 0.14351
0.40466 0.41924 0.14822
0.48164 0.43323 0.15860
0.54610 0.44083 0.17366
0.60490 0.45306 0.19154
0.65159 0.46078 0.20351
0.69558 0.47119 0.21899
0.73934 0.48385 0.23446
0.77708 0.49651 0.25276
0.81247 0.51015 0.27215
0.84009 0.52305 0.29216
0.86417 0.53721 0.30919
0.88460 0.55421 0.32897
0.90148 0.56827 0.34792
0.91777 0.58578 0.36850
0.93364 0.60828 0.39480
0.94608 0.62953 0.42267
0.95748 0.65344 0.45037
0.96491 0.67402 0.48150
0.97510 0.70458 0.51885
0.97661 0.72405 0.54697
0.98039 0.74142 0.57232
0.98039 0.75686 0.59625
0.97791 0.77258 0.61985
1.00000 0.88015 0.75245
0.85956 0.54412 0.30343
0.00000 0.43847 0.18810
0.00000 0.45826 0.19779
0.00244 0.45833 0.19768
0.07773 0.45475 0.19314
0.14357 0.45214 0.18995
0.20836 0.45490 0.18822
0.26762 0.45870 0.18270
0.33652 0.46967 0.18211
0.40811 0.48321 0.18211
0.48540 0.49839 0.18957
0.55788 0.51261 0.20244
0.62108 0.52451 0.21961
0.67426 0.53370 0.23775
0.71789 0.54416 0.25441
0.75756 0.54972 0.26985
0.79154 0.55600 0.28922
0.82185 0.56646 0.30923
0.84623 0.57716 0.33035
0.86825 0.58994 0.34962
0.88698 0.60365 0.37105
0.90373 0.61917 0.39037
0.91740 0.63638 0.41446
0.93478 0.65449 0.44079
0.94406 0.67279 0.46593
0.95476 0.69275 0.49360
0.96224 0.71274 0.52183
0.96882 0.73438 0.55460
0.97270 0.74770 0.57564
0.97403 0.76410 0.59976
0.97647 0.77566 0.61912
0.97675 0.78762 0.63873
1.00000 0.89289 0.76740
0.83150 0.56593 0.31630
0.00000 0.48832 0.21744
0.00000 0.50699 0.22492
0.00122 0.50699 0.22475
0.08681 0.50581 0.22223
0.14743 0.50306 0.21970
0.21115 0.50515 0.21765
0.26306 0.50306 0.21164
0.32426 0.51026 0.21063
0.38907 0.52069 0.20844
0.46061 0.53426 0.21134
0.53098 0.54789 0.21860
0.60063 0.56337 0.23442
0.65618 0.57029 0.25037
0.70559 0.58000 0.26860
0.74571 0.58556 0.28517
0.77917 0.58873 0.30129
0.81150 0.59324 0.32069
0.83470 0.60159 0.34046
0.85534 0.61066 0.35870
0.87538 0.62281 0.37857
0.89167 0.63698 0.39966
0.90711 0.65166 0.42328
0.92440 0.67048 0.44940
0.93667 0.68753 0.47610
0.94730 0.70681 0.50319
0.95502 0.72304 0.52770
0.96430 0.74436 0.55830
0.96504 0.75617 0.58019
0.97022 0.76924 0.60074
0.97255 0.78080 0.62010
0.97292 0.79273 0.63995
1.00000 0.89669 0.76471
0.30588 0.56912 0.28088
0.00000 0.54934 0.25164
0.00000 0.55309 0.25300
0.00000 0.55294 0.25280
0.07230 0.55411 0.25018
0.14151 0.55170 0.24778
0.20588 0.55267 0.24755
0.25728 0.55147 0.24110
0.31189 0.55539 0.24032
0.37128 0.55968 0.23865
0.43336 0.56774 0.23680
0.49867 0.57806 0.23886
0.56520 0.58971 0.24755
0.62669 0.60048 0.25907
0.68039 0.60971 0.27598
0.72630 0.61601 0.29586
0.76471 0.62304 0.31618
0.79767 0.62615 0.33551
0.82273 0.62999 0.35401
0.84400 0.63935 0.37330
0.86477 0.64908 0.39320
0.88113 0.65772 0.41252
0.89758 0.67160 0.43753
0.91242 0.68860 0.46115
0.92610 0.70441 0.48640
0.93735 0.72230 0.51193
0.94976 0.74020 0.54139
0.95748 0.75711 0.56840
0.95882 0.76832 0.58989
0.96382 0.78111 0.61028
0.96633 0.78912 0.62809
0.96875 0.80319 0.64988
0.99118 0.86520 0.72696
0.85723 0.66728 0.39044
0.00000 0.62093 0.30056
0.01528 0.64046 0.31191
0.07967 0.63824 0.31201
0.13759 0.63664 0.30699
0.18492 0.63076 0.30257
0.24179 0.62910 0.29939
0.28703 0.62698 0.29559
0.33244 0.62488 0.29139
0.38358 0.62488 0.28754
0.43689 0.62757 0.28529
0.49590 0.63351 0.28504
0.55686 0.64228 0.28934
0.61695 0.65392 0.29771
0.67365 0.66234 0.31250
0.72315 0.66897 0.33356
0.76471 0.67592 0.35594
0.79876 0.68014 0.37952
0.82476 0.68538 0.39951
0.84727 0.69037 0.41810
0.86569 0.69779 0.43945
0.88113 0.70606 0.45980
0.89657 0.71948 0.48359
0.91201 0.73150 0.50580
0.92353 0.74694 0.53104
0.93454 0.76238 0.55590
0.94583 0.77738 0.58437
0.95123 0.79057 0.60759
0.95483 0.79963 0.62786
0.96093 0.80895 0.64694
0.96252 0.81532 0.66252
0.96721 0.82689 0.68424
1.00000 0.91605 0.79289
0.84338 0.71029 0.42966
0.08097 0.68042 0.35240
0.14810 0.69352 0.36215
0.18219 0.69510 0.36160
0.21253 0.69167 0.35833
0.24458 0.68588 0.35441
0.28987 0.68554 0.35081
0.32708 0.68210 0.34743
0.36520 0.67990 0.34485
0.40675 0.67990 0.34141
0.45535 0.68108 0.33941
0.50478 0.68307 0.33760
0.55662 0.68799 0.34010
0.61017 0.69612 0.34669
0.66297 0.70391 0.35758
0.71397 0.70986 0.37297
0.76029 0.71667 0.39596
0.79730 0.72138 0.41917
0.82426 0.72598 0.43922
0.84501 0.73068 0.45776
0.86348 0.73578 0.47770
0.87892 0.74446 0.49951
0.89554 0.75466 0.52010
0.90980 0.76348 0.54167
0.92077 0.77500 0.56630
0.93199 0.78786 0.58738
0.93938 0.79983 0.61054
0.94743 0.80956 0.63370
0.95273 0.81838 0.65025
0.95895 0.82610 0.66740
0.96089 0.83382 0.68113
0.96488 0.84172 0.69900
1.00000 0.91936 0.80000
0.81520 0.72549 0.43713
0.15802 0.70705 0.37874
0.19939 0.71569 0.38848
0.22225 0.71581 0.39032
0.24375 0.71397 0.38482
0.27022 0.71005 0.38096
0.30652 0.70836 0.38064
0.33964 0.70613 0.37717
0.37601 0.70429 0.37540
0.41076 0.70429 0.37356
0.45188 0.70613 0.37218
0.49426 0.70613 0.36975
0.53787 0.70858 0.37017
0.58712 0.71298 0.37279
0.63510 0.71775 0.37892
0.68357 0.72377 0.38946
0.73088 0.73058 0.40496
0.77255 0.73444 0.42426
0.80336 0.73988 0.44620
0.82683 0.74411 0.46554
0.84730 0.74995 0.48415
0.86656 0.75637 0.50466
0.88456 0.76658 0.52651
0.89948 0.77574 0.54841
0.91152 0.78444 0.57157
0.92264 0.79550 0.59081
0.93199 0.80674 0.61174
0.94003 0.81507 0.63321
0.94720 0.82402 0.65014
0.95289 0.83174 0.66887
0.95502 0.83554 0.67892
0.96096 0.84552 0.69668
1.00000 0.92157 0.79792
0.46078 0.71961 0.40980
0.15974 0.71232 0.38738
0.19130 0.71765 0.39596
0.21477 0.72138 0.39804
0.23946 0.71765 0.39436
0.26814 0.71930 0.39608
0.30294 0.71961 0.39804
0.33578 0.71961 0.39804
0.36814 0.71912 0.39706
0.40343 0.71961 0.39608
0.43958 0.72157 0.39939
0.47433 0.71961 0.39479
0.51422 0.72083 0.39485
0.55907 0.72390 0.39724
0.60147 0.72855 0.39914
0.64675 0.73437 0.40600
0.69216 0.74118 0.41765
0.74056 0.74798 0.43309
0.77745 0.75294 0.45245
0.80754 0.75846 0.47341
0.83186 0.76618 0.49583
0.85239 0.77261 0.51581
0.87169 0.78027 0.53897
0.88848 0.78934 0.55821
0.90343 0.79755 0.58088
0.91458 0.80674 0.59976
0.92586 0.81446 0.61912
0.93395 0.82414 0.63879
0.94314 0.83358 0.65956
0.94939 0.83977 0.67525
0.95490 0.84730 0.68873
0.95711 0.85319 0.70429
0.98235 0.89216 0.76078
0.79608 0.75821 0.47561
0.24171 0.74613 0.43854
0.27242 0.75232 0.44803
0.29007 0.75429 0.44833
0.30342 0.75037 0.44608
0.32451 0.75245 0.44787
0.34902 0.75037 0.44608
0.37500 0.75082 0.44816
0.40025 0.74991 0.44816
0.43015 0.75037 0.44758
0.46062 0.75180 0.44877
0.48824 0.74974 0.44816
0.52120 0.75115 0.45000
0.55843 0.75354 0.44925
0.59718 0.75741 0.45312
0.63800 0.76140 0.46006
0.68039 0.76814 0.46777
0.72586 0.77684 0.48321
0.76555 0.78356 0.49876
0.79977 0.78934 0.51692
0.82679 0.79591 0.53831
0.84990 0.80357 0.55970
0.86969 0.81124 0.58084
0.88566 0.82081 0.60074
0.90208 0.82662 0.62108
0.91255 0.83342 0.63881
0.92230 0.84154 0.65623
0.93395 0.85102 0.67917
0.94167 0.85699 0.69671
0.94939 0.86471 0.71194
0.95686 0.87059 0.72538
0.95699 0.87451 0.73909
1.00000 0.93333 0.82145
0.77843 0.78603 0.51716
0.33061 0.77957 0.49318
0.35784 0.78554 0.50256
0.36781 0.78570 0.50286
0.37546 0.78183 0.50049
0.38897 0.78348 0.50022
0.40760 0.78162 0.49910
0.42770 0.78162 0.50049
0.45049 0.78162 0.50049
0.47303 0.78100 0.50172
0.49833 0.78093 0.50372
0.52304 0.78162 0.50441
0.54755 0.78162 0.50695
0.57847 0.78251 0.50764
0.61150 0.78479 0.51150
0.64340 0.78855 0.51343
0.68174 0.79363 0.52034
0.72237 0.80031 0.53107
0.75830 0.80611 0.54164
0.79118 0.81287 0.55646
0.82123 0.81805 0.57279
0.84434 0.82326 0.59179
0.86471 0.83093 0.61034
0.88346 0.83811 0.63027
0.89786 0.84583 0.64908
0.91077 0.85097 0.66579
0.92230 0.85875 0.68333
0.93223 0.86838 0.70429
0.94167 0.87279 0.71841
0.94746 0.87859 0.72994
0.95515 0.88407 0.74327
0.95699 0.88645 0.75490
0.99436 0.93725 0.82745
0.74424 0.78824 0.53100
0.37691 0.79601 0.52167
0.39350 0.79995 0.53086
0.40137 0.80015 0.53115
0.40662 0.79767 0.52525
0.41998 0.79742 0.52708
0.43498 0.79405 0.52476
0.45086 0.79585 0.52868
0.46982 0.79494 0.52868
0.49175 0.79534 0.52982
0.51324 0.79694 0.53187
0.53321 0.79712 0.53260
0.55697 0.79622 0.53506
0.58186 0.79564 0.53652
0.60825 0.79767 0.53742
0.63727 0.79966 0.53850
0.66624 0.79963 0.54240
0.70453 0.80735 0.54744
0.73644 0.81147 0.55424
0.76927 0.81823 0.56695
0.80023 0.82413 0.57914
0.82726 0.82855 0.59540
0.85074 0.83419 0.61152
0.87071 0.84257 0.63256
0.88897 0.85156 0.65294
0.90173 0.85700 0.66963
0.91360 0.86348 0.68775
0.92684 0.87095 0.70515
0.93615 0.87639 0.71843
0.94221 0.88091 0.72834
0.94917 0.88627 0.74157
0.95306 0.88806 0.75319
0.99449 0.93725 0.82745
0.59020 0.79216 0.53137
0.38290 0.80093 0.53045
0.39583 0.80196 0.53520
0.40502 0.80343 0.53922
0.41324 0.80245 0.53738
0.42721 0.80599 0.54095
0.44139 0.80392 0.54219
0.46071 0.80539 0.54412
0.47757 0.80650 0.54669
0.49661 0.80576 0.54882
0.51906 0.80833 0.55414
0.53911 0.80686 0.55587
0.55987 0.80833 0.55692
0.58102 0.80833 0.55784
0.60564 0.80980 0.55931
0.63088 0.81189 0.56287
0.65662 0.81250 0.56422
0.68873 0.81703 0.56801
0.71921 0.82019 0.57371
0.75047 0.82609 0.58346
0.78088 0.83088 0.59118
0.80931 0.83726 0.60527
0.83505 0.84118 0.61814
0.85780 0.84689 0.63672
0.87610 0.85490 0.65453
0.88946 0.86017 0.67137
0.90490 0.86890 0.68900
0.91973 0.87670 0.70711
0.92923 0.88217 0.72255
0.94043 0.88601 0.73540
0.94672 0.89231 0.74942
0.95061 0.89620 0.76108
0.96961 0.91961 0.80049
0.74252 0.81716 0.58199
0.43563 0.82754 0.57811
0.44984 0.82892 0.58207
0.45748 0.82905 0.58591
0.46520 0.82909 0.58608
0.47251 0.83027 0.58704
0.48640 0.82917 0.58616
0.50079 0.83179 0.59039
0.51786 0.83284 0.59534
0.53395 0.83284 0.59632
0.55031 0.83284 0.59944
0.56652 0.83453 0.60282
0.58791 0.83496 0.60628
0.60613 0.83677 0.60704
0.62549 0.83677 0.61056
0.64830 0.83885 0.61409
0.67328 0.84197 0.61789
0.70024 0.84389 0.62169
0.72806 0.84718 0.62694
0.75282 0.85110 0.63321
0.78088 0.85502 0.64043
0.80797 0.85983 0.64954
0.83113 0.86367 0.66194
0.85429 0.86654 0.67426
0.87319 0.87200 0.68842
0.89191 0.87836 0.70571
0.90870 0.88922 0.72451
0.92433 0.89743 0.74427
0.93517 0.90466 0.75931
0.94277 0.90858 0.77317
0.94661 0.91000 0.78227
0.95294 0.91512 0.79645
0.97647 0.95037 0.85368
0.74412 0.84167 0.62843
0.49974 0.85751 0.63251
0.50915 0.85858 0.63611
0.51324 0.86127 0.63639
0.51952 0.85892 0.63643
0.52439 0.85858 0.63461
0.53430 0.85758 0.63650
0.54618 0.85821 0.63809
0.55980 0.86097 0.64112
0.57132 0.85811 0.64108
0.58715 0.85858 0.64534
0.60221 0.86035 0.64711
0.61979 0.86173 0.65095
0.63578 0.86127 0.65319
0.65176 0.86181 0.65588
0.67145 0.86336 0.65797
0.69338 0.86520 0.66176
0.71589 0.86520 0.66307
0.73676 0.86671 0.66696
0.75895 0.86912 0.67157
0.78358 0.87258 0.67650
0.80674 0.87616 0.68346
0.82990 0.87966 0.69387
0.85306 0.88468 0.70551
0.87390 0.88940 0.71581
0.89250 0.89383 0.73235
0.91127 0.90342 0.74802
0.92652 0.91145 0.76697
0.93741 0.91495 0.77975
0.94510 0.91887 0.79375
0.94649 0.92019 0.80147
0.95175 0.92292 0.81324
0.96985 0.95417 0.86397
0.72831 0.84816 0.64816
0.53211 0.87083 0.65898
0.53836 0.87169 0.65993
0.54128 0.87451 0.66029
0.54475 0.87169 0.65993
0.54713 0.86887 0.65711
0.55633 0.86830 0.65621
0.56557 0.87059 0.65993
0.57914 0.87142 0.66357
0.59026 0.87169 0.66385
0.60292 0.87169 0.66799
0.61729 0.87169 0.67072
0.63277 0.87387 0.67105
0.64779 0.87214 0.67447
0.66165 0.87341 0.67672
0.67736 0.87377 0.67821
0.69412 0.87561 0.68009
0.71422 0.87353 0.68137
0.73174 0.87561 0.68346
0.75270 0.87561 0.68738
0.77370 0.87912 0.69130
0.79472 0.88050 0.69657
0.81716 0.88627 0.70429
0.84032 0.89051 0.71280
0.86109 0.89298 0.72436
0.88272 0.89976 0.73591
0.90233 0.90609 0.75049
0.91821 0.91417 0.76637
0.92990 0.91778 0.78088
0.93762 0.92157 0.79252
0.94246 0.92267 0.80146
0.94902 0.92561 0.81201
0.96863 0.95404 0.86385
0.68529 0.86667 0.66863
0.55224 0.88955 0.68061
0.55968 0.89020 0.68137
0.56167 0.89047 0.68165
0.56618 0.89105 0.68235
0.56703 0.88726 0.67941
0.57555 0.88805 0.68039
0.58640 0.88888 0.68202
0.59804 0.89118 0.68750
0.60941 0.89118 0.68894
0.62040 0.89026 0.68922
0.63554 0.89216 0.69378
0.64767 0.89216 0.69657
0.66250 0.89176 0.69764
0.67500 0.89216 0.69902
0.68946 0.89216 0.70110
0.70490 0.89265 0.70294
0.72034 0.89059 0.70340
0.73744 0.89087 0.70558
0.75457 0.89216 0.70726
0.77500 0.89314 0.71176
0.79617 0.89709 0.71670
0.81544 0.89994 0.72249
0.83762 0.90306 0.72883
0.85735 0.90564 0.73701
0.87785 0.90925 0.74694
0.89798 0.91471 0.75760
0.91428 0.91811 0.77279
0.92782 0.92439 0.78468
0.93762 0.92745 0.79850
0.94136 0.93039 0.80931
0.95003 0.93336 0.82368
0.95392 0.94118 0.84412
0.79779 0.92328 0.74547
0.63375 0.94326 0.75260
0.63572 0.94295 0.75250
0.63644 0.94289 0.74947
0.63958 0.94021 0.74939
0.64217 0.93910 0.74866
0.64918 0.94216 0.74923
0.65748 0.93983 0.75245
0.66520 0.94059 0.75331
0.67660 0.94289 0.75699
0.68667 0.94289 0.75934
0.69877 0.94375 0.76373
0.71029 0.94566 0.76752
0.72181 0.94426 0.76740
0.73677 0.94596 0.77120
0.74954 0.94583 0.77454
0.76183 0.94614 0.77531
0.77840 0.94722 0.77868
0.79338 0.94681 0.78210
0.80797 0.94863 0.78382
0.82426 0.94681 0.78529
0.83971 0.94681 0.78775
0.85429 0.94681 0.78775
0.87217 0.94681 0.79191
0.88824 0.94988 0.79887
0.90435 0.94815 0.80171
0.91912 0.94739 0.81115
0.93136 0.94729 0.82021
0.94242 0.94988 0.83051
0.94910 0.94988 0.84216
0.95294 0.94988 0.84988
0.95304 0.95000 0.85772
0.96556 0.96556 0.90368
0.81495 0.94583 0.78260
0.67345 0.96262 0.78679
0.67431 0.96230 0.78676
0.67426 0.95937 0.78659
0.67491 0.95947 0.78373
0.67769 0.95833 0.78271
0.68137 0.95833 0.78578
0.68909 0.95891 0.78640
0.69761 0.95931 0.78805
0.70772 0.96205 0.79326
0.71837 0.96225 0.79337
0.72647 0.96274 0.79767
0.74072 0.96590 0.80101
0.74877 0.96415 0.80453
0.76127 0.96544 0.80613
0.77277 0.96360 0.80782
0.78738 0.96225 0.81005
0.80015 0.96301 0.81115
0.81127 0.96152 0.81144
0.82469 0.96078 0.81324
0.83624 0.95953 0.81351
0.85049 0.96042 0.81397
0.86520 0.96029 0.81716
0.87921 0.96009 0.82055
0.89534 0.96152 0.82500
0.90760 0.95903 0.82643
0.92230 0.96152 0.83358
0.93395 0.95833 0.84180
0.94550 0.95760 0.85221
0.95198 0.95760 0.86288
0.95294 0.95755 0.86838
0.95306 0.95770 0.87633
0.96544 0.96936 0.91446
0.81900 0.95686 0.80784
0.70147 0.97684 0.81201
0.70200 0.97651 0.81180
0.69921 0.97316 0.80846
0.69968 0.97316 0.80556
0.70206 0.97213 0.80463
0.70895 0.97243 0.80772
0.71409 0.97316 0.80893
0.72203 0.97399 0.80990
