jibun-no-iro.cube
TITLE "smith custom look"
LUT_3D_SIZE 9
0.00000 0.04314 0.01176
0.04853 0.04314 0.01569
0.21373 0.02843 0.01961
0.43529 0.00000 0.03137
0.68431 0.00000 0.06863
0.86471 0.19853 0.12598
0.95098 0.37059 0.21176
1.00000 0.54363 0.35931
1.00000 0.81961 0.67059
0.06716 0.08922 0.03431
0.07102 0.11225 0.03529
0.24510 0.11520 0.04951
0.46458 0.12812 0.07390
0.69338 0.19069 0.11176
0.85509 0.30294 0.16520
0.94032 0.43493 0.25453
0.98725 0.58529 0.39749
0.99951 0.81520 0.66765
0.18431 0.28333 0.12157
0.03211 0.27341 0.10392
0.31618 0.32770 0.10858
0.56691 0.36875 0.16078
0.75147 0.42402 0.21373
0.87108 0.48566 0.27353
0.94069 0.56985 0.36299
0.98039 0.67892 0.49314
0.99902 0.83529 0.69216
0.30588 0.56912 0.28088
0.07230 0.55411 0.25018
0.31189 0.55539 0.24032
0.56520 0.58971 0.24755
0.76471 0.62304 0.31618
0.86477 0.64908 0.39320
0.92610 0.70441 0.48640
0.95882 0.76832 0.58989
0.99118 0.86520 0.72696
0.46078 0.71961 0.40980
0.23946 0.71765 0.39436
0.36814 0.71912 0.39706
0.51422 0.72083 0.39485
0.69216 0.74118 0.41765
0.83186 0.76618 0.49583
0.90343 0.79755 0.58088
0.94314 0.83358 0.65956
0.98235 0.89216 0.76078
0.59020 0.79216 0.53137
0.41324 0.80245 0.53738
0.47757 0.80650 0.54669
0.55987 0.80833 0.55692
0.65662 0.81250 0.56422
0.78088 0.83088 0.59118
0.87610 0.85490 0.65453
0.92923 0.88217 0.72255
0.96961 0.91961 0.80049
0.68529 0.86667 0.66863
0.56618 0.89105 0.68235
0.59804 0.89118 0.68750
0.64767 0.89216 0.69657
0.70490 0.89265 0.70294
0.77500 0.89314 0.71176
0.85735 0.90564 0.73701
0.92782 0.92439 0.78468
0.95392 0.94118 0.84412
0.78235 0.96912 0.82010
0.69406 0.98284 0.82102
0.71838 0.98027 0.82488
0.75325 0.97941 0.83137
0.78946 0.97598 0.83186
0.83284 0.97384 0.83658
0.88493 0.97451 0.84461
0.93578 0.97347 0.86262
0.96127 0.96912 0.91127
0.80000 1.00000 0.88235
0.67010 1.00000 0.89412
0.70392 1.00000 0.89314
0.74755 1.00000 0.89020
0.78824 1.00000 0.88824
0.82892 1.00000 0.89020
0.87157 0.99216 0.89804
0.91814 0.99167 0.90980
0.95686 0.98823 0.91765
0.00000 0.05882 0.08529
0.00000 0.07402 0.09749
0.10993 0.11287 0.13149
0.34393 0.14540 0.15196
0.44681 0.15098 0.13284
0.64645 0.25294 0.18646
0.78824 0.38529 0.26998
0.88726 0.54406 0.40588
1.00000 0.80392 0.68186
0.05539 0.10337 0.08873
0.07678 0.11476 0.09833
0.22348 0.13076 0.10887
0.41324 0.13499 0.11618
0.61590 0.18456 0.14216
0.78654 0.28742 0.19040
0.88899 0.41877 0.27330
0.95203 0.57152 0.41220
0.98873 0.80631 0.67206
0.18309 0.27941 0.17316
0.11400 0.26454 0.15807
0.31238 0.30190 0.16654
0.54484 0.35199 0.20925
0.73419 0.41569 0.25233
0.85625 0.47679 0.30294
0.92972 0.56474 0.38349
0.97237 0.67598 0.50985
0.99314 0.82892 0.69706
0.31029 0.57874 0.33511
0.17489 0.55878 0.30486
0.34062 0.55302 0.29015
0.57255 0.58812 0.30110
0.76158 0.62010 0.36005
0.86188 0.65012 0.42726
0.92652 0.71078 0.51742
0.96052 0.77433 0.61105
0.99246 0.86777 0.74167
0.51863 0.73309 0.46373
0.30542 0.73119 0.44608
0.40888 0.72862 0.44350
0.53407 0.72672 0.43833
0.70196 0.74412 0.45625
0.83490 0.76994 0.52852
0.90349 0.80294 0.60588
0.94142 0.83578 0.67521
0.98407 0.89387 0.77230
0.62187 0.80656 0.57420
0.46226 0.81896 0.58315
0.51274 0.81720 0.58431
0.58248 0.81698 0.58953
0.66961 0.81847 0.59240
0.78701 0.83609 0.61747
0.87716 0.85706 0.67434
0.93266 0.88578 0.73744
0.96422 0.91961 0.80803
0.70576 0.87831 0.69755
0.59640 0.90149 0.71233
0.62399 0.89911 0.71431
0.66792 0.90149 0.72171
0.71636 0.89694 0.72224
0.78280 0.90000 0.72790
0.86345 0.91241 0.75227
0.93013 0.92531 0.79603
0.95649 0.94473 0.85539
0.79755 0.97255 0.83627
0.71727 0.98627 0.84233
0.73520 0.98402 0.84297
0.76501 0.98284 0.84426
0.79899 0.97920 0.84479
0.83658 0.97614 0.84608
0.88840 0.97440 0.85228
0.93676 0.97347 0.86709
0.96127 0.96912 0.91820
0.81127 1.00000 0.89020
0.69363 1.00000 0.90196
0.72047 1.00000 0.90061
0.75882 1.00000 0.89559
0.79583 1.00000 0.89412
0.83413 0.99608 0.89540
0.87647 0.98958 0.90294
0.91857 0.98823 0.91366
0.95686 0.98873 0.91814
0.00000 0.05980 0.16863
0.00000 0.07500 0.18873
0.09436 0.10196 0.22034
0.34755 0.11863 0.24167
0.46029 0.11029 0.19069
0.63444 0.22181 0.23382
0.78848 0.37941 0.32451
0.88738 0.54853 0.45588
1.00000 0.79314 0.70098
0.05931 0.08738 0.17316
0.07485 0.10182 0.18672
0.22770 0.10689 0.19926
0.41091 0.08879 0.18218
0.60631 0.14877 0.20656
0.78180 0.26979 0.25691
0.88989 0.42031 0.33873
0.94943 0.57192 0.46071
0.98873 0.79890 0.69510
0.22377 0.25294 0.24583
0.16284 0.25169 0.24338
0.32837 0.28045 0.25790
0.54347 0.34062 0.29773
0.72782 0.39890 0.32623
0.85006 0.46875 0.36765
0.92868 0.57010 0.44804
0.96995 0.67999 0.55536
0.99314 0.82745 0.72255
0.41140 0.57623 0.43076
0.26743 0.55509 0.40026
0.39654 0.54832 0.38922
0.58983 0.58168 0.39841
0.76471 0.62083 0.45049
0.86046 0.66131 0.50749
0.92534 0.72515 0.58226
0.96097 0.77868 0.65193
0.99265 0.86924 0.76716
0.56078 0.73873 0.54020
0.38382 0.73358 0.52126
0.46814 0.72941 0.51900
0.56740 0.72763 0.51544
0.71569 0.74583 0.53064
0.83474 0.77408 0.59369
0.90257 0.80882 0.65441
0.94638 0.84534 0.71409
0.98382 0.89559 0.79461
0.64963 0.81520 0.62684
0.51008 0.82593 0.63338
0.55429 0.82402 0.63480
0.61285 0.82226 0.63722
0.68701 0.82255 0.63707
0.79534 0.84056 0.65930
0.88143 0.86406 0.71244
0.93615 0.89154 0.76494
0.96667 0.92353 0.82696
0.72328 0.88407 0.73137
0.62270 0.90784 0.74445
0.65025 0.90570 0.74632
0.68680 0.90368 0.74881
0.73137 0.90245 0.75049
0.79341 0.90383 0.75542
0.87053 0.91422 0.77524
0.93404 0.93094 0.81550
0.95686 0.94510 0.86667
0.81458 0.97598 0.85760
0.73503 0.98660 0.85807
0.75123 0.98413 0.85849
0.77793 0.98284 0.85794
0.80876 0.97941 0.85760
0.84688 0.97862 0.85901
0.89458 0.97696 0.86612
0.94341 0.97638 0.88131
0.96434 0.97206 0.92561
0.81765 0.99706 0.89804
0.69706 1.00000 0.90980
0.72279 1.00000 0.90809
0.76029 1.00000 0.90490
0.79902 1.00000 0.90098
0.84105 0.99608 0.90527
0.88358 0.99142 0.91299
0.92169 0.99081 0.91765
0.95784 0.98823 0.92157
0.00000 0.05882 0.29461
0.00000 0.06636 0.30766
0.00000 0.08958 0.34216
0.31330 0.09896 0.36667
0.44926 0.09093 0.30784
0.60490 0.15490 0.30784
0.76262 0.32966 0.37684
0.87874 0.50521 0.48284
1.00000 0.75588 0.70196
0.05833 0.06912 0.30067
0.06037 0.08304 0.31343
0.22379 0.07532 0.32318
0.41012 0.05092 0.31703
0.62718 0.05070 0.33683
0.76653 0.17362 0.33209
0.88364 0.37990 0.40803
0.95223 0.53879 0.50227
0.98824 0.77028 0.70852
0.24645 0.21385 0.34730
0.18119 0.22492 0.34902
0.33450 0.24200 0.36520
0.53333 0.27618 0.39605
0.69706 0.30178 0.38425
0.83664 0.41736 0.43269
0.92497 0.53624 0.49936
0.97309 0.64953 0.58335
0.99412 0.80490 0.73346
0.43879 0.52230 0.49871
0.31273 0.51647 0.49638
0.46193 0.54122 0.50913
0.63005 0.57647 0.52849
0.77230 0.62114 0.56281
0.86023 0.66142 0.59216
0.92952 0.72100 0.63925
0.96647 0.77145 0.68764
0.99504 0.86023 0.78719
0.59387 0.73676 0.62328
0.45230 0.73725 0.61529
0.53995 0.73174 0.61360
0.61961 0.72699 0.60959
0.74007 0.74804 0.62377
0.84093 0.78064 0.66939
0.90754 0.81667 0.71409
0.95123 0.85123 0.75588
0.98750 0.89804 0.82083
0.67022 0.81556 0.68217
0.55528 0.82972 0.69302
0.59769 0.82537 0.69118
0.64985 0.82549 0.69161
0.71078 0.82518 0.69093
0.81017 0.84278 0.71245
0.88725 0.86808 0.75551
0.94149 0.89521 0.79773
0.96520 0.92598 0.84706
0.74056 0.88824 0.76532
0.65139 0.91066 0.77976
0.67693 0.90980 0.77947
0.71108 0.90692 0.78149
0.75319 0.90490 0.78229
0.80980 0.90746 0.78712
0.88370 0.92053 0.80738
0.94001 0.93574 0.84162
0.95686 0.94988 0.88223
0.81661 0.97941 0.87531
0.74765 0.98944 0.87745
0.76549 0.98778 0.87607
0.79001 0.98547 0.87574
0.82117 0.98220 0.87491
0.86029 0.97959 0.87567
0.90447 0.97947 0.88125
0.94961 0.97482 0.89792
0.96863 0.97518 0.93597
0.80686 1.00000 0.90980
0.66814 1.00000 0.92157
0.69608 1.00000 0.91949
0.73634 1.00000 0.91520
0.78824 1.00000 0.91299
0.84161 0.99553 0.91464
0.88333 0.99032 0.92157
0.91795 0.98823 0.92531
0.95686 0.98971 0.92941
0.00000 0.04902 0.44902
0.00000 0.05270 0.46422
0.00000 0.06029 0.49461
0.28480 0.04534 0.50098
0.44020 0.04412 0.42059
0.58824 0.13284 0.42672
0.76520 0.30049 0.48578
0.86397 0.42524 0.51642
1.00000 0.69412 0.70784
0.05711 0.02819 0.45074
0.00000 0.03888 0.47503
0.21746 0.01881 0.46219
0.40821 0.01896 0.44933
0.59767 0.01765 0.47034
0.79124 0.15156 0.50977
0.88934 0.31936 0.51575
0.94832 0.44439 0.53125
0.98725 0.71765 0.72647
0.22549 0.17353 0.47598
0.17892 0.18676 0.47433
0.33088 0.19547 0.48358
0.51826 0.22457 0.51857
0.70466 0.28456 0.55319
0.84583 0.37672 0.56373
0.91483 0.45147 0.55306
0.97696 0.58027 0.60852
0.99657 0.75539 0.74069
0.46397 0.48235 0.60637
0.34577 0.48686 0.61474
0.47341 0.50478 0.62138
0.62034 0.52500 0.63260
0.75306 0.55466 0.63272
0.83162 0.56912 0.60760
0.92034 0.64430 0.64749
0.97019 0.70827 0.68407
0.99706 0.81863 0.78113
0.59804 0.70784 0.68824
0.46164 0.70502 0.68897
0.55319 0.71078 0.68971
0.65772 0.72255 0.69645
0.75588 0.74167 0.70833
0.85110 0.78051 0.74007
0.91716 0.80980 0.76250
0.96483 0.84216 0.78750
0.99118 0.88725 0.83824
0.68358 0.81275 0.73775
0.57080 0.82623 0.75138
0.61550 0.82463 0.74908
0.67328 0.82304 0.74629
0.72843 0.82169 0.74424
0.82178 0.84418 0.76544
0.89602 0.87077 0.80147
0.94933 0.89917 0.83039
0.97034 0.92598 0.87034
0.75196 0.88676 0.79902
0.66127 0.91060 0.81618
0.68652 0.90711 0.81275
0.72377 0.90490 0.81109
0.77059 0.90490 0.81544
0.82163 0.90766 0.81863
0.89338 0.92071 0.83407
0.94645 0.93689 0.86495
0.96029 0.95392 0.90049
0.82157 0.97941 0.89412
0.75089 0.98971 0.89482
0.76955 0.98670 0.89430
0.79828 0.98563 0.89396
0.82990 0.98284 0.89301
0.87215 0.98070 0.89476
0.91691 0.97966 0.89724
0.95567 0.97675 0.91805
0.97108 0.97672 0.94363
0.77059 1.00000 0.92157
0.61176 1.00000 0.94118
0.63971 1.00000 0.93578
0.69191 1.00000 0.93137
0.75392 1.00000 0.92451
0.83113 0.99926 0.92623
0.87990 0.99216 0.92794
0.91422 0.98995 0.93137
0.95294 0.98823 0.93725
0.00000 0.02206 0.61127
0.00000 0.01293 0.61912
0.00000 0.00000 0.64620
0.26225 0.00000 0.62843
0.43922 0.00000 0.52745
0.55931 0.06379 0.50686
0.74853 0.25735 0.58529
0.86636 0.44332 0.63627
1.00000 0.61177 0.72206
0.05833 0.00000 0.60147
0.00000 0.01140 0.61206
0.20674 0.01219 0.59131
0.40654 0.01103 0.57524
0.58995 0.01014 0.58725
0.75705 0.03058 0.61943
0.88706 0.29461 0.65089
0.95173 0.45662 0.66158
0.98676 0.63762 0.74743
0.19767 0.09841 0.58787
0.17014 0.12567 0.59081
0.32233 0.12328 0.59020
0.49911 0.14147 0.61907
0.67935 0.21207 0.65870
0.82835 0.32676 0.68333
0.93336 0.46961 0.70653
0.97937 0.54468 0.69510
0.99767 0.67328 0.75221
0.45741 0.41771 0.69320
0.33407 0.41366 0.69357
0.45585 0.43457 0.70343
0.59602 0.46078 0.71611
0.73627 0.50466 0.73015
0.84853 0.57032 0.74062
0.92606 0.62056 0.74095
0.96520 0.63106 0.70900
1.00000 0.74565 0.77849
0.61642 0.67181 0.76250
0.49035 0.67776 0.77230
0.56673 0.68701 0.76998
0.65806 0.69779 0.77154
0.74865 0.70600 0.77255
0.83336 0.72093 0.76746
0.88977 0.70999 0.73958
0.95720 0.75426 0.76225
0.99608 0.83750 0.82745
0.69020 0.79853 0.78915
0.55931 0.80129 0.79051
0.60611 0.80147 0.79127
0.67099 0.80721 0.79452
0.74902 0.81936 0.80322
0.83429 0.84173 0.82024
0.90677 0.87007 0.84439
0.96263 0.89037 0.85790
0.97849 0.91575 0.88578
0.76275 0.88235 0.83199
0.65093 0.90008 0.84617
0.67975 0.89951 0.84657
0.72384 0.90018 0.84657
0.77813 0.90159 0.84773
0.82854 0.90259 0.84887
0.90199 0.91768 0.86131
0.95374 0.93891 0.88908
0.96520 0.95502 0.91814
0.81599 0.97941 0.91471
0.73570 0.98971 0.91814
0.76006 0.98874 0.91717
0.79400 0.98627 0.91551
0.83462 0.98177 0.91415
0.87431 0.98022 0.91159
0.92039 0.97790 0.91238
0.96120 0.97696 0.93526
0.97433 0.97825 0.95098
0.72892 1.00000 0.94118
0.54951 1.00000 0.96795
0.58211 1.00000 0.96336
0.63824 1.00000 0.95288
0.71250 1.00000 0.94461
0.78732 1.00000 0.93480
0.86752 0.99399 0.93725
0.91262 0.98952 0.94087
0.95147 0.99069 0.94510
0.00000 0.00000 0.76078
0.00000 0.00000 0.76850
0.00000 0.00000 0.78235
0.24277 0.00000 0.74461
0.44461 0.00000 0.63235
0.54154 0.00000 0.56654
0.72941 0.15025 0.65392
0.85147 0.36765 0.69988
1.00000 0.61078 0.81078
0.06017 0.00000 0.70306
0.00000 0.00000 0.72322
0.16857 0.00000 0.71173
0.40325 0.00000 0.69375
0.59467 0.00000 0.70178
0.75170 0.00083 0.71941
0.87086 0.16210 0.73744
0.94750 0.40080 0.74891
0.98725 0.62892 0.83444
0.15294 0.00221 0.68431
0.14268 0.00000 0.69418
0.31085 0.00000 0.69105
0.47745 0.00000 0.70499
0.66201 0.01544 0.74730
0.81593 0.20821 0.77699
0.91869 0.36961 0.78676
0.97966 0.52426 0.79020
0.99730 0.66691 0.83358
0.41360 0.30490 0.74020
0.30741 0.30744 0.75018
0.42460 0.32500 0.76296
0.56546 0.35627 0.78199
0.71520 0.40778 0.80441
0.84369 0.48787 0.82039
0.92558 0.57246 0.82194
0.97664 0.64608 0.81587
1.00000 0.71544 0.83064
0.59069 0.61520 0.83137
0.46373 0.62518 0.84577
0.53578 0.62904 0.84314
0.63664 0.64265 0.84240
0.73897 0.65613 0.84338
0.83701 0.67904 0.84259
0.90784 0.71127 0.83725
0.96324 0.73738 0.82972
0.99265 0.77255 0.82990
0.66973 0.77230 0.84461
0.55343 0.79108 0.86150
0.59865 0.79237 0.86011
0.66543 0.79517 0.85968
0.74252 0.79982 0.85778
0.82267 0.80539 0.85712
0.88680 0.81011 0.85006
0.94260 0.79954 0.82834
0.98468 0.86005 0.87083
0.75662 0.87083 0.86887
0.63919 0.88235 0.87748
0.66863 0.88192 0.87721
0.71697 0.88465 0.87763
0.77770 0.89069 0.88137
0.83971 0.89608 0.88404
0.90962 0.91275 0.89485
0.96201 0.93287 0.91373
0.97157 0.95123 0.93358
0.80098 0.97855 0.94167
0.71624 0.98638 0.94902
0.74317 0.98649 0.94559
0.78159 0.98531 0.94413
0.82984 0.98070 0.93903
0.87817 0.97695 0.93511
0.92307 0.97488 0.93042
0.96513 0.97733 0.94894
0.97782 0.98051 0.95833
0.67353 1.00000 0.96961
0.48922 1.00000 1.00000
0.52819 1.00000 0.99387
0.58922 1.00000 0.98284
0.66422 1.00000 0.96961
0.74130 1.00000 0.95784
0.81912 0.99975 0.94976
0.90686 0.99179 0.95037
0.95294 0.98922 0.95784
0.00000 0.00000 0.88824
0.00000 0.00000 0.89167
0.00000 0.00000 0.89559
0.19179 0.00000 0.83971
0.43505 0.00000 0.73603
0.53284 0.00000 0.62972
0.69816 0.00000 0.68529
0.84375 0.19222 0.74963
1.00000 0.56716 0.87941
0.05833 0.00000 0.82053
0.00000 0.00000 0.83556
0.16374 0.00000 0.82869
0.39637 0.00000 0.82349
0.59733 0.00000 0.81765
0.76040 0.00000 0.81477
0.88019 0.00000 0.82665
0.95496 0.22842 0.82407
0.98725 0.59694 0.92004
0.14032 0.00000 0.78652
0.00032 0.00000 0.81451
0.28220 0.00000 0.80319
0.46734 0.00000 0.80325
0.65165 0.00000 0.83438
0.81377 0.00000 0.85651
0.92975 0.11756 0.86896
0.98830 0.39571 0.86252
1.00000 0.65282 0.92059
0.35754 0.08088 0.77040
0.25129 0.11767 0.78246
0.37537 0.11958 0.79778
0.52395 0.13473 0.82621
0.68343 0.18468 0.85475
0.83327 0.28934 0.87990
0.94024 0.43231 0.89465
0.98592 0.56395 0.88274
1.00000 0.71501 0.91274
0.50956 0.47476 0.87059
0.35181 0.48128 0.88817
0.46581 0.50086 0.89969
0.59574 0.52221 0.90833
0.72500 0.54620 0.91238
0.84124 0.57828 0.91265
0.92598 0.63339 0.90882
0.97328 0.69908 0.89485
0.99828 0.78578 0.90711
0.64130 0.72537 0.90723
0.49831 0.76045 0.94095
0.55023 0.75496 0.93419
0.62469 0.74944 0.92639
0.71740 0.74700 0.92010
0.81630 0.75197 0.91649
0.90274 0.77356 0.91487
0.96320 0.80879 0.90977
0.98805 0.84853 0.90735
0.73775 0.85944 0.92328
0.61134 0.88595 0.94252
0.64519 0.88695 0.94317
0.69398 0.88454 0.94024
0.75974 0.88266 0.93879
0.82897 0.88133 0.93569
0.90573 0.87999 0.93281
0.96497 0.89577 0.92881
0.97488 0.91752 0.93088
0.79718 0.96912 0.96955
0.70430 0.98284 0.97678
0.73024 0.98252 0.97652
0.76816 0.97754 0.97314
0.81670 0.97448 0.96805
0.87420 0.97040 0.96397
0.92820 0.96801 0.95859
0.97109 0.97587 0.96569
0.98131 0.97549 0.96857
0.66225 1.00000 0.99657
0.48928 1.00000 1.00000
0.52353 1.00000 1.00000
0.57353 1.00000 1.00000
0.64069 1.00000 0.99828
0.72047 1.00000 0.98352
0.80294 1.00000 0.97255
0.89467 0.99216 0.96869
0.96863 0.99216 0.97647
0.00000 0.01961 0.98431
0.00000 0.00000 0.98431
0.00000 0.00000 0.96373
0.13971 0.00000 0.87500
0.41569 0.00000 0.75294
0.52745 0.00000 0.67696
0.69608 0.00000 0.72745
0.84902 0.00000 0.78529
1.00000 0.41176 0.90980
0.05588 0.00000 0.89510
0.00000 0.00153 0.92255
0.15784 0.00000 0.91789
0.39767 0.00000 0.92169
0.61789 0.00000 0.91446
0.78787 0.00000 0.91287
0.92181 0.00000 0.91311
0.97763 0.00000 0.91575
0.98824 0.46275 0.97500
0.15392 0.00000 0.93627
0.00000 0.00000 0.96274
0.27647 0.00000 0.96397
0.49988 0.00000 0.96532
0.68627 0.00000 0.96814
0.84706 0.00000 0.95772
0.96397 0.00000 0.94608
1.00000 0.00000 0.94890
1.00000 0.54510 0.97353
0.23676 0.00000 0.85784
0.07745 0.00000 0.89902
0.30980 0.00000 0.89412
0.48676 0.00000 0.89412
0.64828 0.00000 0.89338
0.81330 0.00000 0.91176
0.95858 0.00000 0.94571
1.00000 0.32047 0.95754
1.00000 0.63971 0.97206
0.31373 0.08431 0.79216
0.06716 0.13137 0.79828
0.27990 0.12304 0.81814
0.46838 0.12230 0.86397
0.65000 0.15196 0.90196
0.82892 0.25294 0.94265
0.96225 0.40539 0.97108
1.00000 0.56250 0.97206
1.00000 0.73333 0.96274
0.44118 0.54608 0.94118
0.06379 0.57904 0.97580
0.25453 0.55147 0.95833
0.46728 0.55313 0.96201
0.66887 0.58922 0.98260
0.82549 0.61814 0.98824
0.93664 0.66066 0.98370
1.00000 0.72678 0.97353
1.00000 0.82549 0.95784
0.62745 0.77451 0.95000
0.43517 0.86311 1.00000
0.48946 0.85907 1.00000
0.57059 0.84657 1.00000
0.66422 0.82451 0.99265
0.78002 0.81176 0.98493
0.89485 0.81936 0.98039
0.98125 0.84951 0.97635
0.98431 0.90686 0.95392
0.74118 0.92990 0.98284
0.61225 0.96422 1.00000
0.63922 0.96373 1.00000
0.68419 0.96342 1.00000
0.74338 0.95760 1.00000
0.81569 0.95098 0.99657
0.89265 0.94350 0.98909
0.97353 0.95392 0.98823
0.98431 0.97745 0.97696
0.78824 0.99216 0.98823
0.66667 1.00000 0.99216
0.68627 1.00000 0.99216
0.71618 0.99755 0.98823
0.76471 0.99608 0.98823
0.83431 0.99216 0.98431
0.90882 0.98922 0.98431
0.98088 0.99216 0.98431
0.98823 0.99216 0.98431
