jibun-no-iro.cube
TITLE "smith custom look"
LUT_3D_SIZE 5
0.00000 0.04314 0.01176
0.21373 0.02843 0.01961
0.68431 0.00000 0.06863
0.95098 0.37059 0.21176
1.00000 0.81961 0.67059
0.18431 0.28333 0.12157
0.31618 0.32770 0.10858
0.75147 0.42402 0.21373
0.94069 0.56985 0.36299
0.99902 0.83529 0.69216
0.46078 0.71961 0.40980
0.36814 0.71912 0.39706
0.69216 0.74118 0.41765
0.90343 0.79755 0.58088
0.98235 0.89216 0.76078
0.68529 0.86667 0.66863
0.59804 0.89118 0.68750
0.70490 0.89265 0.70294
0.85735 0.90564 0.73701
0.95392 0.94118 0.84412
0.80000 1.00000 0.88235
0.70392 1.00000 0.89314
0.78824 1.00000 0.88824
0.87157 0.99216 0.89804
0.95686 0.98823 0.91765
0.00000 0.05980 0.16863
0.09436 0.10196 0.22034
0.46029 0.11029 0.19069
0.78848 0.37941 0.32451
1.00000 0.79314 0.70098
0.22377 0.25294 0.24583
0.32837 0.28045 0.25790
0.72782 0.39890 0.32623
0.92868 0.57010 0.44804
0.99314 0.82745 0.72255
0.56078 0.73873 0.54020
0.46814 0.72941 0.51900
0.71569 0.74583 0.53064
0.90257 0.80882 0.65441
0.98382 0.89559 0.79461
0.72328 0.88407 0.73137
0.65025 0.90570 0.74632
0.73137 0.90245 0.75049
0.87053 0.91422 0.77524
0.95686 0.94510 0.86667
0.81765 0.99706 0.89804
0.72279 1.00000 0.90809
0.79902 1.00000 0.90098
0.88358 0.99142 0.91299
0.95784 0.98823 0.92157
0.00000 0.04902 0.44902
0.00000 0.06029 0.49461
0.44020 0.04412 0.42059
0.76520 0.30049 0.48578
1.00000 0.69412 0.70784
0.22549 0.17353 0.47598
0.33088 0.19547 0.48358
0.70466 0.28456 0.55319
0.91483 0.45147 0.55306
0.99657 0.75539 0.74069
0.59804 0.70784 0.68824
0.55319 0.71078 0.68971
0.75588 0.74167 0.70833
0.91716 0.80980 0.76250
0.99118 0.88725 0.83824
0.75196 0.88676 0.79902
0.68652 0.90711 0.81275
0.77059 0.90490 0.81544
0.89338 0.92071 0.83407
0.96029 0.95392 0.90049
0.77059 1.00000 0.92157
0.63971 1.00000 0.93578
0.75392 1.00000 0.92451
0.87990 0.99216 0.92794
0.95294 0.98823 0.93725
0.00000 0.00000 0.76078
0.00000 0.00000 0.78235
0.44461 0.00000 0.63235
0.72941 0.15025 0.65392
1.00000 0.61078 0.81078
0.15294 0.00221 0.68431
0.31085 0.00000 0.69105
0.66201 0.01544 0.74730
0.91869 0.36961 0.78676
0.99730 0.66691 0.83358
0.59069 0.61520 0.83137
0.53578 0.62904 0.84314
0.73897 0.65613 0.84338
0.90784 0.71127 0.83725
0.99265 0.77255 0.82990
0.75662 0.87083 0.86887
0.66863 0.88192 0.87721
0.77770 0.89069 0.88137
0.90962 0.91275 0.89485
0.97157 0.95123 0.93358
0.67353 1.00000 0.96961
0.52819 1.00000 0.99387
0.66422 1.00000 0.96961
0.81912 0.99975 0.94976
0.95294 0.98922 0.95784
0.00000 0.01961 0.98431
0.00000 0.00000 0.96373
0.41569 0.00000 0.75294
0.69608 0.00000 0.72745
1.00000 0.41176 0.90980
0.15392 0.00000 0.93627
0.27647 0.00000 0.96397
0.68627 0.00000 0.96814
0.96397 0.00000 0.94608
1.00000 0.54510 0.97353
0.31373 0.08431 0.79216
0.27990 0.12304 0.81814
0.65000 0.15196 0.90196
0.96225 0.40539 0.97108
1.00000 0.73333 0.96274
0.62745 0.77451 0.95000
0.48946 0.85907 1.00000
0.66422 0.82451 0.99265
0.89485 0.81936 0.98039
0.98431 0.90686 0.95392
0.78824 0.99216 0.98823
0.68627 1.00000 0.99216
0.76471 0.99608 0.98823
0.90882 0.98922 0.98431
0.98823 0.99216 0.98431
